; G-Code generated by Simplify3D(R) Version 4.0.0
; Dec 9, 2018 at 10:26:14 PM
; Settings Summary
;   processName,Process1
;   applyToModels,FrontCover5mm
;   profileName,ABSX200 (modified)
;   profileVersion,2018-05-09 09:22:02
;   baseProfile,Default(2)(2)(2)(2)(2) (modified)
;   printMaterial,
;   printQuality,
;   printExtruders,
;   extruderName,Primary Extruder
;   extruderToolheadNumber,0
;   extruderDiameter,0.5
;   extruderAutoWidth,1
;   extruderWidth,0.6
;   extrusionMultiplier,1.03
;   extruderUseRetract,1
;   extruderRetractionDistance,1.5
;   extruderExtraRestartDistance,0
;   extruderRetractionZLift,0
;   extruderRetractionSpeed,900
;   extruderUseCoasting,1
;   extruderCoastingDistance,0.3
;   extruderUseWipe,0
;   extruderWipeDistance,5
;   primaryExtruder,0
;   layerHeight,0.25
;   topSolidLayers,4
;   bottomSolidLayers,3
;   perimeterOutlines,2
;   printPerimetersInsideOut,1
;   startPointOption,2
;   startPointOriginX,0
;   startPointOriginY,0
;   sequentialIslands,0
;   spiralVaseMode,0
;   firstLayerHeightPercentage,100
;   firstLayerWidthPercentage,105
;   firstLayerUnderspeed,0.5
;   useRaft,0
;   raftExtruder,0
;   raftTopLayers,3
;   raftBaseLayers,0
;   raftOffset,3
;   raftSeparationDistance,0.14
;   raftTopInfill,100
;   aboveRaftSpeedMultiplier,0.3
;   useSkirt,1
;   skirtExtruder,0
;   skirtLayers,1
;   skirtOutlines,3
;   skirtOffset,0
;   usePrimePillar,0
;   primePillarExtruder,999
;   primePillarWidth,12
;   primePillarLocation,7
;   primePillarSpeedMultiplier,1
;   useOozeShield,0
;   oozeShieldExtruder,999
;   oozeShieldOffset,2
;   oozeShieldOutlines,1
;   oozeShieldSidewallShape,1
;   oozeShieldSidewallAngle,30
;   oozeShieldSpeedMultiplier,1
;   infillExtruder,0
;   internalInfillPattern,Rectilinear
;   externalInfillPattern,Rectilinear
;   infillPercentage,100
;   outlineOverlapPercentage,15
;   infillExtrusionWidthPercentage,200
;   minInfillLength,2
;   infillLayerInterval,1
;   internalInfillAngles,45,-45
;   overlapInternalInfillAngles,0
;   externalInfillAngles,45,-45
;   generateSupport,1
;   supportExtruder,0
;   supportInfillPercentage,20
;   supportExtraInflation,1
;   supportBaseLayers,0
;   denseSupportExtruder,0
;   denseSupportLayers,0
;   denseSupportInfillPercentage,70
;   supportLayerInterval,1
;   supportHorizontalPartOffset,0.5
;   supportUpperSeparationLayers,1
;   supportLowerSeparationLayers,1
;   supportType,0
;   supportGridSpacing,1
;   maxOverhangAngle,45
;   supportAngles,90
;   temperatureName,Primary Extruder,Heated Bed
;   temperatureNumber,0,1
;   temperatureSetpointCount,1,1
;   temperatureSetpointLayers,1,1
;   temperatureSetpointTemperatures,230,100
;   temperatureStabilizeAtStartup,1,1
;   temperatureHeatedBed,0,1
;   temperatureRelayBetweenLayers,0,0
;   temperatureRelayBetweenLoops,0,0
;   fanLayers,1,2
;   fanSpeeds,0,40
;   blipFanToFullPower,1
;   adjustSpeedForCooling,1
;   minSpeedLayerTime,20
;   minCoolingSpeedSlowdown,60
;   increaseFanForCooling,1
;   minFanLayerTime,45
;   maxCoolingFanSpeed,80
;   increaseFanForBridging,1
;   bridgingFanSpeed,100
;   use5D,1
;   relativeEdistances,0
;   allowEaxisZeroing,1
;   independentExtruderAxes,0
;   includeM10123,0
;   stickySupport,1
;   applyToolheadOffsets,0
;   gcodeXoffset,0
;   gcodeYoffset,0
;   gcodeZoffset,0
;   overrideMachineDefinition,1
;   machineTypeOverride,0
;   strokeXoverride,298
;   strokeYoverride,275
;   strokeZoverride,250
;   originOffsetXoverride,0
;   originOffsetYoverride,0
;   originOffsetZoverride,0
;   homeXdirOverride,-1
;   homeYdirOverride,-1
;   homeZdirOverride,-1
;   flipXoverride,1
;   flipYoverride,-1
;   flipZoverride,1
;   toolheadOffsets,0,0|0,0|0,0|0,0|0,0|0,0
;   overrideFirmwareConfiguration,1
;   firmwareTypeOverride,RepRap (Marlin/Repetier/Sprinter)
;   GPXconfigOverride,r2
;   baudRateOverride,115200
;   overridePrinterModels,1
;   printerModelsOverride,LulzBot_TAZ3.stl
;   startingGcode,G28 ; home all axes
;   layerChangeGcode,
;   retractionGcode,
;   toolChangeGcode,
;   endingGcode,M400,M104 S0                        ; hotend off,M140 S0                        ; heated bed heater off (if you have it),M107                           ; fans off,G91                            ; relative positioning,G1 E-1 F300                    ; retract the filament a bit before lifting the nozzle, to release some of the pressure,G1 Z1 F3000   ; move Z up a bit and retract filament even more,G90                            ; absolute positioning,G1 X0 Y250                     ; move to cooling position,M84                            ; steppers off,G90                            ; absolute positioning,M117 TAZ Ready.,;{profile_string}
;   exportFileFormat,gcode
;   celebration,0
;   celebrationSong,Random Song
;   postProcessing,
;   defaultSpeed,2400
;   outlineUnderspeed,0.5
;   solidInfillUnderspeed,0.8
;   supportUnderspeed,0.8
;   rapidXYspeed,4800
;   rapidZspeed,1002
;   minBridgingArea,50
;   bridgingExtraInflation,0
;   bridgingExtrusionMultiplier,1
;   bridgingSpeedMultiplier,1
;   useFixedBridgingAngle,0
;   fixedBridgingAngle,0
;   applyBridgingToPerimeters,0
;   filamentDiameters,2.85|2.9|2.9|2.9|2.9|2.9
;   filamentPricesPerKg,13|13|13|13|13|13
;   filamentDensities,1.05|1.05|1.05|1.05|1.05|1.05
;   useMinPrintHeight,0
;   minPrintHeight,10
;   useMaxPrintHeight,0
;   maxPrintHeight,10
;   useDiaphragm,0
;   diaphragmLayerInterval,20
;   robustSlicing,1
;   mergeAllIntoSolid,0
;   onlyRetractWhenCrossingOutline,1
;   retractBetweenLayers,1
;   useRetractionMinTravel,0
;   retractionMinTravel,3
;   retractWhileWiping,0
;   onlyWipeOutlines,1
;   avoidCrossingOutline,0
;   maxMovementDetourFactor,3
;   toolChangeRetractionDistance,12
;   toolChangeExtraRestartDistance,-0.5
;   toolChangeRetractionSpeed,600
;   externalThinWallType,0
;   internalThinWallType,2
;   thinWallAllowedOverlapPercentage,10
;   singleExtrusionMinLength,1
;   singleExtrusionMinPrintingWidthPercentage,50
;   singleExtrusionMaxPrintingWidthPercentage,200
;   singleExtrusionEndpointExtension,0.2
;   horizontalSizeCompensation,0
G90
M82
M106 S255
G4 P500
M106 S0
M140 S100
M190 S100
M104 S230 T0
M109 S230 T0
G28 ; home all axes
G92 E0
G1 E-1.5000 F900
G1 Z0.250 F1002
; process Process1
; layer 1, Z = 0.250
T0
; tool H0.250 W0.630
; skirt
G1 X61.583 Y39.415 F4800
G1 E0.0000 F270
G92 E0
G1 X62.462 Y38.537 E0.0316 F1200
G1 X234.704 Y38.537 E4.4116
G1 X235.583 Y39.415 E4.4432
G1 X235.583 Y211.658 E8.8233
G1 X234.704 Y212.537 E8.8549
G1 X62.462 Y212.537 E13.2349
G1 X61.583 Y211.658 E13.2665
G1 X61.583 Y39.715 E17.6390
G1 X61.583 Y39.415 F1200
G1 X62.183 Y39.664 F4800
G92 E0
G1 X62.710 Y39.137 E0.0190 F1200
G1 X234.456 Y39.137 E4.3864
G1 X234.983 Y39.664 E4.4053
G1 X234.983 Y211.409 E8.7727
G1 X234.456 Y211.937 E8.7917
G1 X62.710 Y211.937 E13.1591
G1 X62.183 Y211.409 E13.1781
G1 X62.183 Y39.964 E17.5378
G1 X62.183 Y39.664 F1200
G1 X62.783 Y39.912 F4800
G92 E0
G1 X62.959 Y39.737 E0.0063 F1200
G1 X234.207 Y39.737 E4.3611
G1 X234.383 Y39.912 E4.3674
G1 X234.383 Y211.161 E8.7222
G1 X234.207 Y211.337 E8.7285
G1 X62.959 Y211.337 E13.0833
G1 X62.783 Y211.161 E13.0896
G1 X62.783 Y40.212 E17.4367
G1 X62.783 Y39.912 F1200
G92 E0
G1 E-1.5000 F900
; inner perimeter
G1 X64.028 Y40.982 F4800
G1 E0.0000 F900
G92 E0
G1 X233.138 Y40.982 E4.3004 F900
G1 X233.138 Y210.092 E8.6008
G1 X64.028 Y210.092 E12.9012
G1 X64.028 Y41.282 E17.1939
G1 X64.028 Y40.982 F900
; outer perimeter
G1 X63.398 Y40.352 F4800
G92 E0
G1 X233.768 Y40.352 E4.3324 F600
G1 X233.768 Y210.722 E8.6649
G1 X63.398 Y210.722 E12.9973
G1 X63.398 Y40.652 E17.3221
G1 X63.398 Y40.352 F600
; inner perimeter
G1 X68.138 Y45.092 F4800
G92 E0
G1 X68.138 Y205.982 E4.0914 F900
G1 X229.028 Y205.982 E8.1827
G1 X229.028 Y45.092 E12.2741
G1 X68.438 Y45.092 E16.3578
G1 X68.138 Y45.092 F900
; outer perimeter
G1 X68.768 Y45.722 F4800
G92 E0
G1 X68.768 Y205.352 E4.0593 F600
G1 X228.398 Y205.352 E8.1186
G1 X228.398 Y45.722 E12.1779
G1 X69.068 Y45.722 E16.2296
G1 X68.768 Y45.722 F600
G92 E0
G1 E-1.5000 F900
; solid layer
G1 X229.564 Y46.145 F4800
G1 E0.0000 F900
G92 E0
G1 X232.603 Y49.184 E0.1093 F960
G1 X232.603 Y50.075 E0.1319
G1 X229.564 Y47.036 E0.2412
G1 X229.564 Y47.927 E0.2639
G1 X232.603 Y50.966 E0.3732
G1 X232.603 Y51.857 E0.3958
G1 X229.564 Y48.818 E0.5051
G1 X229.564 Y49.709 E0.5278
G1 X232.603 Y52.748 E0.6371
G1 X232.603 Y53.639 E0.6597
G1 X229.564 Y50.600 E0.7690
G1 X229.564 Y51.491 E0.7917
G1 X232.603 Y54.530 E0.9010
G1 X232.603 Y55.421 E0.9236
G1 X229.564 Y52.382 E1.0329
G1 X229.564 Y53.273 E1.0556
G1 X232.603 Y56.312 E1.1649
G1 X232.603 Y57.203 E1.1875
G1 X229.564 Y54.164 E1.2968
G1 X229.564 Y55.055 E1.3195
G1 X232.603 Y58.094 E1.4288
G1 X232.603 Y58.985 E1.4514
G1 X229.564 Y55.946 E1.5607
G1 X229.564 Y56.837 E1.5834
G1 X232.603 Y59.876 E1.6927
G1 X232.603 Y60.767 E1.7153
G1 X229.564 Y57.728 E1.8246
G1 X229.564 Y58.619 E1.8473
G1 X232.603 Y61.658 E1.9566
G1 X232.603 Y62.549 E1.9792
G1 X229.564 Y59.510 E2.0885
G1 X229.564 Y60.401 E2.1112
G1 X232.603 Y63.440 E2.2204
G1 X232.603 Y64.331 E2.2431
G1 X229.564 Y61.292 E2.3524
G1 X229.564 Y62.182 E2.3751
G1 X232.603 Y65.221 E2.4843
G1 X232.603 Y66.112 E2.5070
G1 X229.564 Y63.073 E2.6163
G1 X229.564 Y63.964 E2.6389
G1 X232.603 Y67.003 E2.7482
G1 X232.603 Y67.894 E2.7709
G1 X229.564 Y64.855 E2.8802
G1 X229.564 Y65.746 E2.9028
G1 X232.603 Y68.785 E3.0121
G1 X232.603 Y69.676 E3.0348
G1 X229.564 Y66.637 E3.1441
G1 X229.564 Y67.528 E3.1667
G1 X232.603 Y70.567 E3.2760
G1 X232.603 Y71.458 E3.2987
G1 X229.564 Y68.419 E3.4080
G1 X229.564 Y69.310 E3.4306
G1 X232.603 Y72.349 E3.5399
G1 X232.603 Y73.240 E3.5626
G1 X229.564 Y70.201 E3.6719
G1 X229.564 Y71.092 E3.6945
G1 X232.603 Y74.131 E3.8038
G1 X232.603 Y75.022 E3.8265
G1 X229.564 Y71.983 E3.9358
G1 X229.564 Y72.874 E3.9584
G1 X232.603 Y75.913 E4.0677
G1 X232.603 Y76.804 E4.0904
G1 X229.564 Y73.765 E4.1997
G1 X229.564 Y74.656 E4.2223
G1 X232.603 Y77.695 E4.3316
G1 X232.603 Y78.586 E4.3543
G1 X229.564 Y75.547 E4.4636
G1 X229.564 Y76.438 E4.4862
G1 X232.603 Y79.477 E4.5955
G1 X232.603 Y80.368 E4.6182
G1 X229.564 Y77.329 E4.7275
G1 X229.564 Y78.220 E4.7501
G1 X232.603 Y81.259 E4.8594
G1 X232.603 Y82.150 E4.8821
G1 X229.564 Y79.111 E4.9913
G1 X229.564 Y80.002 E5.0140
G1 X232.603 Y83.041 E5.1233
G1 X232.603 Y83.932 E5.1459
G1 X229.564 Y80.893 E5.2552
G1 X229.564 Y81.783 E5.2779
G1 X232.603 Y84.822 E5.3872
G1 X232.603 Y85.713 E5.4098
G1 X229.564 Y82.674 E5.5191
G1 X229.564 Y83.565 E5.5418
G1 X232.603 Y86.604 E5.6511
G1 X232.603 Y87.495 E5.6737
G1 X229.564 Y84.456 E5.7830
G1 X229.564 Y85.347 E5.8057
G1 X232.603 Y88.386 E5.9150
G1 X232.603 Y89.277 E5.9376
G1 X229.564 Y86.238 E6.0469
G1 X229.564 Y87.129 E6.0696
G1 X232.603 Y90.168 E6.1789
G1 X232.603 Y91.059 E6.2015
G1 X229.564 Y88.020 E6.3108
G1 X229.564 Y88.911 E6.3335
G1 X232.603 Y91.950 E6.4428
G1 X232.603 Y92.841 E6.4654
G1 X229.564 Y89.802 E6.5747
G1 X229.564 Y90.693 E6.5974
G1 X232.603 Y93.732 E6.7067
G1 X232.603 Y94.623 E6.7293
G1 X229.564 Y91.584 E6.8386
G1 X229.564 Y92.475 E6.8613
G1 X232.603 Y95.514 E6.9706
G1 X232.603 Y96.405 E6.9932
G1 X229.564 Y93.366 E7.1025
G1 X229.564 Y94.257 E7.1252
G1 X232.603 Y97.296 E7.2345
G1 X232.603 Y98.187 E7.2571
G1 X229.564 Y95.148 E7.3664
G1 X229.564 Y96.039 E7.3891
G1 X232.603 Y99.078 E7.4983
G1 X232.603 Y99.969 E7.5210
G1 X229.564 Y96.930 E7.6303
G1 X229.564 Y97.821 E7.6530
G1 X232.603 Y100.860 E7.7622
G1 X232.603 Y101.751 E7.7849
G1 X229.564 Y98.712 E7.8942
G1 X229.564 Y99.603 E7.9168
G1 X232.603 Y102.642 E8.0261
G1 X232.603 Y103.533 E8.0488
G1 X229.564 Y100.494 E8.1581
G1 X229.564 Y101.384 E8.1807
G1 X232.603 Y104.423 E8.2900
G1 X232.603 Y105.314 E8.3127
G1 X229.564 Y102.275 E8.4220
G1 X229.564 Y103.166 E8.4446
G1 X232.603 Y106.205 E8.5539
G1 X232.603 Y107.096 E8.5766
G1 X229.564 Y104.057 E8.6859
G1 X229.564 Y104.948 E8.7085
G1 X232.603 Y107.987 E8.8178
G1 X232.603 Y108.878 E8.8405
G1 X229.564 Y105.839 E8.9498
G1 X229.564 Y106.730 E8.9724
G1 X232.603 Y109.769 E9.0817
G1 X232.603 Y110.660 E9.1044
G1 X229.564 Y107.621 E9.2137
G1 X229.564 Y108.512 E9.2363
G1 X232.603 Y111.551 E9.3456
G1 X232.603 Y112.442 E9.3683
G1 X229.564 Y109.403 E9.4776
G1 X229.564 Y110.294 E9.5002
G1 X232.603 Y113.333 E9.6095
G1 X232.603 Y114.224 E9.6322
G1 X229.564 Y111.185 E9.7415
G1 X229.564 Y112.076 E9.7641
G1 X232.603 Y115.115 E9.8734
G1 X232.603 Y116.006 E9.8961
G1 X229.564 Y112.967 E10.0053
G1 X229.564 Y113.858 E10.0280
G1 X232.603 Y116.897 E10.1373
G1 X232.603 Y117.788 E10.1600
G1 X229.564 Y114.749 E10.2692
G1 X229.564 Y115.640 E10.2919
G1 X232.603 Y118.679 E10.4012
G1 X232.603 Y119.570 E10.4238
G1 X229.564 Y116.531 E10.5331
G1 X229.564 Y117.422 E10.5558
G1 X232.603 Y120.461 E10.6651
G1 X232.603 Y121.352 E10.6877
G1 X229.564 Y118.313 E10.7970
G1 X229.564 Y119.204 E10.8197
G1 X232.603 Y122.243 E10.9290
G1 X232.603 Y123.134 E10.9516
G1 X229.564 Y120.095 E11.0609
G1 X229.564 Y120.985 E11.0836
G1 X232.603 Y124.024 E11.1929
G1 X232.603 Y124.915 E11.2155
G1 X229.564 Y121.876 E11.3248
G1 X229.564 Y122.767 E11.3475
G1 X232.603 Y125.806 E11.4568
G1 X232.603 Y126.697 E11.4794
G1 X229.564 Y123.658 E11.5887
G1 X229.564 Y124.549 E11.6114
G1 X232.603 Y127.588 E11.7207
G1 X232.603 Y128.479 E11.7433
G1 X229.564 Y125.440 E11.8526
G1 X229.564 Y126.331 E11.8753
G1 X232.603 Y129.370 E11.9846
G1 X232.603 Y130.261 E12.0072
G1 X229.564 Y127.222 E12.1165
G1 X229.564 Y128.113 E12.1392
G1 X232.603 Y131.152 E12.2485
G1 X232.603 Y132.043 E12.2711
G1 X229.564 Y129.004 E12.3804
G1 X229.564 Y129.895 E12.4031
G1 X232.603 Y132.934 E12.5123
G1 X232.603 Y133.825 E12.5350
G1 X229.564 Y130.786 E12.6443
G1 X229.564 Y131.677 E12.6670
G1 X232.603 Y134.716 E12.7762
G1 X232.603 Y135.607 E12.7989
G1 X229.564 Y132.568 E12.9082
G1 X229.564 Y133.459 E12.9308
G1 X232.603 Y136.498 E13.0401
G1 X232.603 Y137.389 E13.0628
G1 X229.564 Y134.350 E13.1721
G1 X229.564 Y135.241 E13.1947
G1 X232.603 Y138.280 E13.3040
G1 X232.603 Y139.171 E13.3267
G1 X229.564 Y136.132 E13.4360
G1 X229.564 Y137.023 E13.4586
G1 X232.603 Y140.062 E13.5679
G1 X232.603 Y140.953 E13.5906
G1 X229.564 Y137.914 E13.6999
G1 X229.564 Y138.805 E13.7225
G1 X232.603 Y141.844 E13.8318
G1 X232.603 Y142.735 E13.8545
G1 X229.564 Y139.696 E13.9638
G1 X229.564 Y140.586 E13.9864
G1 X232.603 Y143.625 E14.0957
G1 X232.603 Y144.516 E14.1184
G1 X229.564 Y141.477 E14.2277
G1 X229.564 Y142.368 E14.2503
G1 X232.603 Y145.407 E14.3596
G1 X232.603 Y146.298 E14.3823
G1 X229.564 Y143.259 E14.4916
G1 X229.564 Y144.150 E14.5142
G1 X232.603 Y147.189 E14.6235
G1 X232.603 Y148.080 E14.6462
G1 X229.564 Y145.041 E14.7555
G1 X229.564 Y145.932 E14.7781
G1 X232.603 Y148.971 E14.8874
G1 X232.603 Y149.862 E14.9101
G1 X229.564 Y146.823 E15.0193
G1 X229.564 Y147.714 E15.0420
G1 X232.603 Y150.753 E15.1513
G1 X232.603 Y151.644 E15.1740
G1 X229.564 Y148.605 E15.2832
G1 X229.564 Y149.496 E15.3059
G1 X232.603 Y152.535 E15.4152
G1 X232.603 Y153.426 E15.4378
G1 X229.564 Y150.387 E15.5471
G1 X229.564 Y151.278 E15.5698
G1 X232.603 Y154.317 E15.6791
G1 X232.603 Y155.208 E15.7017
G1 X229.564 Y152.169 E15.8110
G1 X229.564 Y153.060 E15.8337
G1 X232.603 Y156.099 E15.9430
G1 X232.603 Y156.990 E15.9656
G1 X229.564 Y153.951 E16.0749
G1 X229.564 Y154.842 E16.0976
G1 X232.603 Y157.881 E16.2069
G1 X232.603 Y158.772 E16.2295
G1 X229.564 Y155.733 E16.3388
G1 X229.564 Y156.624 E16.3615
G1 X232.603 Y159.663 E16.4708
G1 X232.603 Y160.554 E16.4934
G1 X229.564 Y157.515 E16.6027
G1 X229.564 Y158.406 E16.6254
G1 X232.603 Y161.445 E16.7347
G1 X232.603 Y162.336 E16.7573
G1 X229.564 Y159.297 E16.8666
G1 X229.564 Y160.187 E16.8893
G1 X232.603 Y163.226 E16.9986
G1 X232.603 Y164.117 E17.0212
G1 X229.564 Y161.078 E17.1305
G1 X229.564 Y161.969 E17.1532
G1 X232.603 Y165.008 E17.2625
G1 X232.603 Y165.899 E17.2851
G1 X229.564 Y162.860 E17.3944
G1 X229.564 Y163.751 E17.4171
G1 X232.603 Y166.790 E17.5263
G1 X232.603 Y167.681 E17.5490
G1 X229.564 Y164.642 E17.6583
G1 X229.564 Y165.533 E17.6810
G1 X232.603 Y168.572 E17.7902
G1 X232.603 Y169.463 E17.8129
G1 X229.564 Y166.424 E17.9222
G1 X229.564 Y167.315 E17.9448
