; G-Code generated by Simplify3D(R) Version 4.0.0
; Dec 9, 2018 at 8:21:47 PM
; Settings Summary
;   processName,Process1
;   applyToModels,FrontCover
;   profileName,ABSX200 (modified)
;   profileVersion,2018-05-09 09:22:02
;   baseProfile,Default(2)(2)(2)(2)(2) (modified)
;   printMaterial,
;   printQuality,
;   printExtruders,
;   extruderName,Primary Extruder
;   extruderToolheadNumber,0
;   extruderDiameter,0.5
;   extruderAutoWidth,1
;   extruderWidth,0.6
;   extrusionMultiplier,1.03
;   extruderUseRetract,1
;   extruderRetractionDistance,1.5
;   extruderExtraRestartDistance,0
;   extruderRetractionZLift,0
;   extruderRetractionSpeed,900
;   extruderUseCoasting,1
;   extruderCoastingDistance,0.3
;   extruderUseWipe,0
;   extruderWipeDistance,5
;   primaryExtruder,0
;   layerHeight,0.25
;   topSolidLayers,4
;   bottomSolidLayers,3
;   perimeterOutlines,2
;   printPerimetersInsideOut,1
;   startPointOption,2
;   startPointOriginX,0
;   startPointOriginY,0
;   sequentialIslands,0
;   spiralVaseMode,0
;   firstLayerHeightPercentage,100
;   firstLayerWidthPercentage,105
;   firstLayerUnderspeed,0.5
;   useRaft,0
;   raftExtruder,0
;   raftTopLayers,3
;   raftBaseLayers,0
;   raftOffset,3
;   raftSeparationDistance,0.14
;   raftTopInfill,100
;   aboveRaftSpeedMultiplier,0.3
;   useSkirt,1
;   skirtExtruder,0
;   skirtLayers,1
;   skirtOutlines,2
;   skirtOffset,6
;   usePrimePillar,0
;   primePillarExtruder,999
;   primePillarWidth,12
;   primePillarLocation,7
;   primePillarSpeedMultiplier,1
;   useOozeShield,0
;   oozeShieldExtruder,999
;   oozeShieldOffset,2
;   oozeShieldOutlines,1
;   oozeShieldSidewallShape,1
;   oozeShieldSidewallAngle,30
;   oozeShieldSpeedMultiplier,1
;   infillExtruder,0
;   internalInfillPattern,Rectilinear
;   externalInfillPattern,Rectilinear
;   infillPercentage,100
;   outlineOverlapPercentage,15
;   infillExtrusionWidthPercentage,200
;   minInfillLength,2
;   infillLayerInterval,1
;   internalInfillAngles,45,-45
;   overlapInternalInfillAngles,0
;   externalInfillAngles,45,-45
;   generateSupport,1
;   supportExtruder,0
;   supportInfillPercentage,20
;   supportExtraInflation,1
;   supportBaseLayers,0
;   denseSupportExtruder,0
;   denseSupportLayers,0
;   denseSupportInfillPercentage,70
;   supportLayerInterval,1
;   supportHorizontalPartOffset,0.5
;   supportUpperSeparationLayers,1
;   supportLowerSeparationLayers,1
;   supportType,0
;   supportGridSpacing,1
;   maxOverhangAngle,45
;   supportAngles,90
;   temperatureName,Primary Extruder,Heated Bed
;   temperatureNumber,0,1
;   temperatureSetpointCount,1,1
;   temperatureSetpointLayers,1,1
;   temperatureSetpointTemperatures,230,100
;   temperatureStabilizeAtStartup,1,1
;   temperatureHeatedBed,0,1
;   temperatureRelayBetweenLayers,0,0
;   temperatureRelayBetweenLoops,0,0
;   fanLayers,1,2
;   fanSpeeds,0,40
;   blipFanToFullPower,1
;   adjustSpeedForCooling,1
;   minSpeedLayerTime,20
;   minCoolingSpeedSlowdown,60
;   increaseFanForCooling,1
;   minFanLayerTime,45
;   maxCoolingFanSpeed,80
;   increaseFanForBridging,1
;   bridgingFanSpeed,100
;   use5D,1
;   relativeEdistances,0
;   allowEaxisZeroing,1
;   independentExtruderAxes,0
;   includeM10123,0
;   stickySupport,1
;   applyToolheadOffsets,0
;   gcodeXoffset,0
;   gcodeYoffset,0
;   gcodeZoffset,0
;   overrideMachineDefinition,1
;   machineTypeOverride,0
;   strokeXoverride,298
;   strokeYoverride,275
;   strokeZoverride,250
;   originOffsetXoverride,0
;   originOffsetYoverride,0
;   originOffsetZoverride,0
;   homeXdirOverride,-1
;   homeYdirOverride,-1
;   homeZdirOverride,-1
;   flipXoverride,1
;   flipYoverride,-1
;   flipZoverride,1
;   toolheadOffsets,0,0|0,0|0,0|0,0|0,0|0,0
;   overrideFirmwareConfiguration,1
;   firmwareTypeOverride,RepRap (Marlin/Repetier/Sprinter)
;   GPXconfigOverride,r2
;   baudRateOverride,115200
;   overridePrinterModels,1
;   printerModelsOverride,LulzBot_TAZ3.stl
;   startingGcode,G28 ; home all axes
;   layerChangeGcode,
;   retractionGcode,
;   toolChangeGcode,
;   endingGcode,M400,M104 S0                        ; hotend off,M140 S0                        ; heated bed heater off (if you have it),M107                           ; fans off,G91                            ; relative positioning,G1 E-1 F300                    ; retract the filament a bit before lifting the nozzle, to release some of the pressure,G1 Z1 F3000   ; move Z up a bit and retract filament even more,G90                            ; absolute positioning,G1 X0 Y250                     ; move to cooling position,M84                            ; steppers off,G90                            ; absolute positioning,M117 TAZ Ready.,;{profile_string}
;   exportFileFormat,gcode
;   celebration,0
;   celebrationSong,Random Song
;   postProcessing,
;   defaultSpeed,3600
;   outlineUnderspeed,0.5
;   solidInfillUnderspeed,0.8
;   supportUnderspeed,0.8
;   rapidXYspeed,4800
;   rapidZspeed,1002
;   minBridgingArea,50
;   bridgingExtraInflation,0
;   bridgingExtrusionMultiplier,1
;   bridgingSpeedMultiplier,1
;   useFixedBridgingAngle,0
;   fixedBridgingAngle,0
;   applyBridgingToPerimeters,0
;   filamentDiameters,2.85|2.9|2.9|2.9|2.9|2.9
;   filamentPricesPerKg,13|13|13|13|13|13
;   filamentDensities,1.05|1.05|1.05|1.05|1.05|1.05
;   useMinPrintHeight,0
;   minPrintHeight,10
;   useMaxPrintHeight,0
;   maxPrintHeight,10
;   useDiaphragm,0
;   diaphragmLayerInterval,20
;   robustSlicing,1
;   mergeAllIntoSolid,0
;   onlyRetractWhenCrossingOutline,1
;   retractBetweenLayers,1
;   useRetractionMinTravel,0
;   retractionMinTravel,3
;   retractWhileWiping,0
;   onlyWipeOutlines,1
;   avoidCrossingOutline,0
;   maxMovementDetourFactor,3
;   toolChangeRetractionDistance,12
;   toolChangeExtraRestartDistance,-0.5
;   toolChangeRetractionSpeed,600
;   externalThinWallType,0
;   internalThinWallType,2
;   thinWallAllowedOverlapPercentage,10
;   singleExtrusionMinLength,1
;   singleExtrusionMinPrintingWidthPercentage,50
;   singleExtrusionMaxPrintingWidthPercentage,200
;   singleExtrusionEndpointExtension,0.2
;   horizontalSizeCompensation,0
G90
M82
M106 S255
G4 P500
M106 S0
M140 S100
M190 S100
M104 S230 T0
M109 S230 T0
G28 ; home all axes
G92 E0
G1 E-1.5000 F900
G1 Z0.250 F1002
; process Process1
; layer 1, Z = 0.250
T0
; tool H0.250 W0.630
; skirt
G1 X19.908 Y29.751 F4800
G1 E0.0000 F270
G92 E0
G1 X20.239 Y29.614 E0.0091 F1800
G1 X188.568 Y29.614 E4.2896
G1 X188.899 Y29.751 E4.2987
G1 X192.666 Y33.519 E4.4342
G1 X192.803 Y33.850 E4.4433
G1 X192.803 Y202.178 E8.7238
G1 X192.666 Y202.509 E8.7330
G1 X188.899 Y206.277 E8.8685
G1 X188.568 Y206.414 E8.8776
G1 X20.239 Y206.414 E13.1581
G1 X19.908 Y206.277 E13.1672
G1 X16.140 Y202.509 E13.3027
G1 X16.003 Y202.178 E13.3118
G1 X16.003 Y33.850 E17.5923
G1 X16.140 Y33.519 E17.6014
G1 X19.696 Y29.963 E17.7293
G1 X19.908 Y29.751 F1800
G1 X20.248 Y30.260 F4800
G92 E0
G1 X20.359 Y30.214 E0.0030 F1800
G1 X188.448 Y30.214 E4.2775
G1 X188.559 Y30.260 E4.2805
G1 X192.158 Y33.859 E4.4099
G1 X192.203 Y33.969 E4.4130
G1 X192.203 Y202.059 E8.6874
G1 X192.158 Y202.169 E8.6905
G1 X188.559 Y205.768 E8.8199
G1 X188.448 Y205.814 E8.8229
G1 X20.359 Y205.814 E13.0974
G1 X20.248 Y205.768 E13.1004
G1 X16.649 Y202.169 E13.2298
G1 X16.603 Y202.059 E13.2329
G1 X16.603 Y33.969 E17.5073
G1 X16.649 Y33.859 E17.5104
G1 X20.036 Y30.472 E17.6322
G1 X20.248 Y30.260 F1800
G92 E0
G1 E-1.5000 F900
; outer perimeter
G1 X23.218 Y36.829 F4800
G1 E0.0000 F900
G92 E0
G1 X185.588 Y36.829 E4.1290 F900
G1 X185.588 Y199.199 E8.2580
G1 X23.218 Y199.199 E12.3870
G1 X23.218 Y37.129 E16.5083
G1 X23.218 Y36.829 F900
G1 X24.588 Y38.199 F4800
G92 E0
G1 X24.588 Y197.829 E4.0593 F900
G1 X184.218 Y197.829 E8.1186
G1 X184.218 Y38.199 E12.1779
G1 X24.888 Y38.199 E16.2296
G1 X24.588 Y38.199 F900
; gap fill
G1 X185.023 Y37.371 F4800
G92 E0
G1 X185.047 Y37.395 E0.0008 F1440
G1 X185.047 Y38.285 E0.0235
G1 X184.760 Y37.999 E0.0338
G1 X184.760 Y37.657 E0.0425
G1 X184.418 Y37.657 E0.0512
G1 X184.132 Y37.371 E0.0615
G1 X183.241 Y37.371 E0.0841
G1 X183.528 Y37.657 E0.0944
G1 X182.637 Y37.657 E0.1171
G1 X182.350 Y37.371 E0.1274
G1 X181.459 Y37.371 E0.1501
G1 X181.746 Y37.657 E0.1604
G1 X180.855 Y37.657 E0.1830
G1 X180.568 Y37.371 E0.1933
G1 X179.677 Y37.371 E0.2160
G1 X179.964 Y37.657 E0.2263
G1 X179.073 Y37.657 E0.2489
G1 X178.786 Y37.371 E0.2592
G1 X177.895 Y37.371 E0.2819
G1 X178.182 Y37.657 E0.2922
G1 X177.291 Y37.657 E0.3148
G1 X177.004 Y37.371 E0.3251
G1 X176.114 Y37.371 E0.3478
G1 X176.400 Y37.657 E0.3581
G1 X175.509 Y37.657 E0.3807
G1 X175.223 Y37.371 E0.3910
G1 X174.332 Y37.371 E0.4137
G1 X174.618 Y37.657 E0.4240
G1 X173.727 Y37.657 E0.4467
G1 X173.441 Y37.371 E0.4570
G1 X172.550 Y37.371 E0.4796
G1 X172.836 Y37.657 E0.4899
G1 X171.945 Y37.657 E0.5126
G1 X171.659 Y37.371 E0.5229
G1 X170.768 Y37.371 E0.5455
G1 X171.054 Y37.657 E0.5558
G1 X170.163 Y37.657 E0.5785
G1 X169.877 Y37.371 E0.5888
G1 X168.986 Y37.371 E0.6114
G1 X169.272 Y37.657 E0.6217
G1 X168.381 Y37.657 E0.6444
G1 X168.095 Y37.371 E0.6547
G1 X167.204 Y37.371 E0.6774
G1 X167.490 Y37.657 E0.6877
G1 X166.599 Y37.657 E0.7103
G1 X166.313 Y37.371 E0.7206
G1 X165.422 Y37.371 E0.7433
G1 X165.708 Y37.657 E0.7536
G1 X164.817 Y37.657 E0.7762
G1 X164.531 Y37.371 E0.7865
G1 X163.640 Y37.371 E0.8092
G1 X163.927 Y37.657 E0.8195
G1 X163.036 Y37.657 E0.8421
G1 X162.749 Y37.371 E0.8524
G1 X161.858 Y37.371 E0.8751
G1 X162.145 Y37.657 E0.8854
G1 X161.254 Y37.657 E0.9080
G1 X160.967 Y37.371 E0.9183
G1 X160.076 Y37.371 E0.9410
G1 X160.363 Y37.657 E0.9513
G1 X159.472 Y37.657 E0.9740
G1 X159.185 Y37.371 E0.9843
G1 X158.294 Y37.371 E1.0069
G1 X158.581 Y37.657 E1.0172
G1 X157.690 Y37.657 E1.0399
G1 X157.403 Y37.371 E1.0502
G1 X156.513 Y37.371 E1.0728
G1 X156.799 Y37.657 E1.0831
G1 X155.908 Y37.657 E1.1058
G1 X155.622 Y37.371 E1.1161
G1 X154.731 Y37.371 E1.1387
G1 X155.017 Y37.657 E1.1490
G1 X154.126 Y37.657 E1.1717
G1 X153.840 Y37.371 E1.1820
G1 X152.949 Y37.371 E1.2046
G1 X153.235 Y37.657 E1.2149
G1 X152.344 Y37.657 E1.2376
G1 X152.058 Y37.371 E1.2479
G1 X151.167 Y37.371 E1.2706
G1 X151.453 Y37.657 E1.2809
G1 X150.562 Y37.657 E1.3035
G1 X150.276 Y37.371 E1.3138
G1 X149.385 Y37.371 E1.3365
G1 X149.671 Y37.657 E1.3468
G1 X148.780 Y37.657 E1.3694
G1 X148.494 Y37.371 E1.3797
G1 X147.603 Y37.371 E1.4024
G1 X147.889 Y37.657 E1.4127
G1 X146.998 Y37.657 E1.4353
G1 X146.712 Y37.371 E1.4456
G1 X145.821 Y37.371 E1.4683
G1 X146.107 Y37.657 E1.4786
G1 X145.216 Y37.657 E1.5012
G1 X144.930 Y37.371 E1.5115
G1 X144.039 Y37.371 E1.5342
G1 X144.326 Y37.657 E1.5445
G1 X143.435 Y37.657 E1.5672
G1 X143.148 Y37.371 E1.5775
G1 X142.257 Y37.371 E1.6001
G1 X142.544 Y37.657 E1.6104
G1 X141.653 Y37.657 E1.6331
G1 X141.366 Y37.371 E1.6434
G1 X140.475 Y37.371 E1.6660
G1 X140.762 Y37.657 E1.6763
G1 X139.871 Y37.657 E1.6990
G1 X139.584 Y37.371 E1.7093
G1 X138.693 Y37.371 E1.7319
G1 X138.980 Y37.657 E1.7422
G1 X138.089 Y37.657 E1.7649
G1 X137.802 Y37.371 E1.7752
G1 X136.912 Y37.371 E1.7979
G1 X137.198 Y37.657 E1.8082
G1 X136.307 Y37.657 E1.8308
G1 X136.021 Y37.371 E1.8411
G1 X135.130 Y37.371 E1.8638
G1 X135.416 Y37.657 E1.8741
G1 X134.525 Y37.657 E1.8967
G1 X134.239 Y37.371 E1.9070
G1 X133.348 Y37.371 E1.9297
G1 X133.634 Y37.657 E1.9400
G1 X132.743 Y37.657 E1.9626
G1 X132.457 Y37.371 E1.9729
G1 X131.566 Y37.371 E1.9956
G1 X131.852 Y37.657 E2.0059
G1 X130.961 Y37.657 E2.0285
G1 X130.675 Y37.371 E2.0388
G1 X129.784 Y37.371 E2.0615
G1 X130.070 Y37.657 E2.0718
G1 X129.179 Y37.657 E2.0945
G1 X128.893 Y37.371 E2.1048
G1 X128.002 Y37.371 E2.1274
G1 X128.288 Y37.657 E2.1377
G1 X127.397 Y37.657 E2.1604
G1 X127.111 Y37.371 E2.1707
G1 X126.220 Y37.371 E2.1933
G1 X126.506 Y37.657 E2.2036
G1 X125.615 Y37.657 E2.2263
G1 X125.329 Y37.371 E2.2366
G1 X124.438 Y37.371 E2.2592
G1 X124.725 Y37.657 E2.2695
G1 X123.834 Y37.657 E2.2922
G1 X123.547 Y37.371 E2.3025
G1 X122.656 Y37.371 E2.3251
G1 X122.943 Y37.657 E2.3354
G1 X122.052 Y37.657 E2.3581
G1 X121.765 Y37.371 E2.3684
G1 X120.874 Y37.371 E2.3911
G1 X121.161 Y37.657 E2.4014
G1 X120.270 Y37.657 E2.4240
G1 X119.983 Y37.371 E2.4343
G1 X119.092 Y37.371 E2.4570
G1 X119.379 Y37.657 E2.4673
G1 X118.488 Y37.657 E2.4899
G1 X118.201 Y37.371 E2.5002
G1 X117.311 Y37.371 E2.5229
G1 X117.597 Y37.657 E2.5332
G1 X116.706 Y37.657 E2.5558
G1 X116.420 Y37.371 E2.5661
G1 X115.529 Y37.371 E2.5888
G1 X115.815 Y37.657 E2.5991
G1 X114.924 Y37.657 E2.6218
G1 X114.638 Y37.371 E2.6321
G1 X113.747 Y37.371 E2.6547
G1 X114.033 Y37.657 E2.6650
G1 X113.142 Y37.657 E2.6877
G1 X112.856 Y37.371 E2.6980
G1 X111.965 Y37.371 E2.7206
G1 X112.251 Y37.657 E2.7309
G1 X111.360 Y37.657 E2.7536
G1 X111.074 Y37.371 E2.7639
G1 X110.183 Y37.371 E2.7865
G1 X110.469 Y37.657 E2.7968
G1 X109.578 Y37.657 E2.8195
G1 X109.292 Y37.371 E2.8298
G1 X108.401 Y37.371 E2.8524
G1 X108.687 Y37.657 E2.8627
G1 X107.796 Y37.657 E2.8854
G1 X107.510 Y37.371 E2.8957
G1 X106.619 Y37.371 E2.9184
G1 X106.905 Y37.657 E2.9287
G1 X106.014 Y37.657 E2.9513
G1 X105.728 Y37.371 E2.9616
G1 X104.837 Y37.371 E2.9843
G1 X105.124 Y37.657 E2.9946
G1 X104.233 Y37.657 E3.0172
G1 X103.946 Y37.371 E3.0275
G1 X103.055 Y37.371 E3.0502
G1 X103.342 Y37.657 E3.0605
G1 X102.451 Y37.657 E3.0831
G1 X102.164 Y37.371 E3.0934
G1 X101.273 Y37.371 E3.1161
G1 X101.560 Y37.657 E3.1264
G1 X100.669 Y37.657 E3.1490
G1 X100.382 Y37.371 E3.1593
G1 X99.491 Y37.371 E3.1820
G1 X99.778 Y37.657 E3.1923
G1 X98.887 Y37.657 E3.2150
G1 X98.600 Y37.371 E3.2253
G1 X97.710 Y37.371 E3.2479
G1 X97.996 Y37.657 E3.2582
G1 X97.105 Y37.657 E3.2809
G1 X96.819 Y37.371 E3.2912
G1 X95.928 Y37.371 E3.3138
G1 X96.214 Y37.657 E3.3241
G1 X95.323 Y37.657 E3.3468
G1 X95.037 Y37.371 E3.3571
G1 X94.146 Y37.371 E3.3797
G1 X94.432 Y37.657 E3.3900
G1 X93.541 Y37.657 E3.4127
G1 X93.255 Y37.371 E3.4230
G1 X92.364 Y37.371 E3.4456
G1 X92.650 Y37.657 E3.4559
G1 X91.759 Y37.657 E3.4786
G1 X91.473 Y37.371 E3.4889
G1 X90.582 Y37.371 E3.5116
G1 X90.868 Y37.657 E3.5219
G1 X89.977 Y37.657 E3.5445
G1 X89.691 Y37.371 E3.5548
G1 X88.800 Y37.371 E3.5775
G1 X89.086 Y37.657 E3.5878
G1 X88.195 Y37.657 E3.6104
G1 X87.909 Y37.371 E3.6207
G1 X87.018 Y37.371 E3.6434
G1 X87.304 Y37.657 E3.6537
G1 X86.413 Y37.657 E3.6763
G1 X86.127 Y37.371 E3.6866
G1 X85.236 Y37.371 E3.7093
G1 X85.523 Y37.657 E3.7196
G1 X84.632 Y37.657 E3.7423
G1 X84.345 Y37.371 E3.7526
G1 X83.454 Y37.371 E3.7752
G1 X83.741 Y37.657 E3.7855
G1 X82.850 Y37.657 E3.8082
G1 X82.563 Y37.371 E3.8185
G1 X81.672 Y37.371 E3.8411
G1 X81.959 Y37.657 E3.8514
G1 X81.068 Y37.657 E3.8741
G1 X80.781 Y37.371 E3.8844
G1 X79.890 Y37.371 E3.9070
G1 X80.177 Y37.657 E3.9173
G1 X79.286 Y37.657 E3.9400
G1 X78.999 Y37.371 E3.9503
G1 X78.109 Y37.371 E3.9729
G1 X78.395 Y37.657 E3.9832
G1 X77.504 Y37.657 E4.0059
G1 X77.218 Y37.371 E4.0162
G1 X76.327 Y37.371 E4.0389
G1 X76.613 Y37.657 E4.0492
G1 X75.722 Y37.657 E4.0718
G1 X75.436 Y37.371 E4.0821
G1 X74.545 Y37.371 E4.1048
G1 X74.831 Y37.657 E4.1151
G1 X73.940 Y37.657 E4.1377
G1 X73.654 Y37.371 E4.1480
G1 X72.763 Y37.371 E4.1707
G1 X73.049 Y37.657 E4.1810
G1 X72.158 Y37.657 E4.2036
G1 X71.872 Y37.371 E4.2139
G1 X70.981 Y37.371 E4.2366
G1 X71.267 Y37.657 E4.2469
G1 X70.376 Y37.657 E4.2695
G1 X70.090 Y37.371 E4.2798
G1 X69.199 Y37.371 E4.3025
G1 X69.485 Y37.657 E4.3128
G1 X68.594 Y37.657 E4.3355
G1 X68.308 Y37.371 E4.3458
G1 X67.417 Y37.371 E4.3684
G1 X67.703 Y37.657 E4.3787
G1 X66.812 Y37.657 E4.4014
G1 X66.526 Y37.371 E4.4117
G1 X65.635 Y37.371 E4.4343
G1 X65.922 Y37.657 E4.4446
G1 X65.031 Y37.657 E4.4673
G1 X64.744 Y37.371 E4.4776
G1 X63.853 Y37.371 E4.5002
G1 X64.140 Y37.657 E4.5105
G1 X63.249 Y37.657 E4.5332
G1 X62.962 Y37.371 E4.5435
G1 X62.071 Y37.371 E4.5662
G1 X62.358 Y37.657 E4.5764
G1 X61.467 Y37.657 E4.5991
G1 X61.180 Y37.371 E4.6094
G1 X60.289 Y37.371 E4.6321
G1 X60.576 Y37.657 E4.6424
G1 X59.685 Y37.657 E4.6650
G1 X59.398 Y37.371 E4.6753
G1 X58.508 Y37.371 E4.6980
G1 X58.794 Y37.657 E4.7083
G1 X57.903 Y37.657 E4.7309
G1 X57.617 Y37.371 E4.7412
G1 X56.726 Y37.371 E4.7639
G1 X57.012 Y37.657 E4.7742
G1 X56.121 Y37.657 E4.7968
G1 X55.835 Y37.371 E4.8071
G1 X54.944 Y37.371 E4.8298
G1 X55.230 Y37.657 E4.8401
