; G-Code generated by Simplify3D(R) Version 4.0.0
; Dec 9, 2018 at 8:18:27 PM
; Settings Summary
;   processName,Process1
;   applyToModels,Grid
;   profileName,ABSX200 (modified)
;   profileVersion,2018-05-09 09:22:02
;   baseProfile,Default(2)(2)(2)(2)(2) (modified)
;   printMaterial,
;   printQuality,
;   printExtruders,
;   extruderName,Primary Extruder
;   extruderToolheadNumber,0
;   extruderDiameter,0.5
;   extruderAutoWidth,1
;   extruderWidth,0.6
;   extrusionMultiplier,1.03
;   extruderUseRetract,1
;   extruderRetractionDistance,1.5
;   extruderExtraRestartDistance,0
;   extruderRetractionZLift,0
;   extruderRetractionSpeed,900
;   extruderUseCoasting,1
;   extruderCoastingDistance,0.3
;   extruderUseWipe,0
;   extruderWipeDistance,5
;   primaryExtruder,0
;   layerHeight,0.25
;   topSolidLayers,4
;   bottomSolidLayers,3
;   perimeterOutlines,2
;   printPerimetersInsideOut,1
;   startPointOption,2
;   startPointOriginX,0
;   startPointOriginY,0
;   sequentialIslands,0
;   spiralVaseMode,0
;   firstLayerHeightPercentage,100
;   firstLayerWidthPercentage,105
;   firstLayerUnderspeed,0.5
;   useRaft,0
;   raftExtruder,0
;   raftTopLayers,3
;   raftBaseLayers,0
;   raftOffset,3
;   raftSeparationDistance,0.14
;   raftTopInfill,100
;   aboveRaftSpeedMultiplier,0.3
;   useSkirt,1
;   skirtExtruder,0
;   skirtLayers,1
;   skirtOutlines,4
;   skirtOffset,0
;   usePrimePillar,0
;   primePillarExtruder,999
;   primePillarWidth,12
;   primePillarLocation,7
;   primePillarSpeedMultiplier,1
;   useOozeShield,0
;   oozeShieldExtruder,999
;   oozeShieldOffset,2
;   oozeShieldOutlines,1
;   oozeShieldSidewallShape,1
;   oozeShieldSidewallAngle,30
;   oozeShieldSpeedMultiplier,1
;   infillExtruder,0
;   internalInfillPattern,Rectilinear
;   externalInfillPattern,Rectilinear
;   infillPercentage,100
;   outlineOverlapPercentage,15
;   infillExtrusionWidthPercentage,200
;   minInfillLength,2
;   infillLayerInterval,1
;   internalInfillAngles,45,-45
;   overlapInternalInfillAngles,0
;   externalInfillAngles,45,-45
;   generateSupport,1
;   supportExtruder,0
;   supportInfillPercentage,20
;   supportExtraInflation,1
;   supportBaseLayers,0
;   denseSupportExtruder,0
;   denseSupportLayers,0
;   denseSupportInfillPercentage,70
;   supportLayerInterval,1
;   supportHorizontalPartOffset,0.5
;   supportUpperSeparationLayers,1
;   supportLowerSeparationLayers,1
;   supportType,0
;   supportGridSpacing,1
;   maxOverhangAngle,45
;   supportAngles,90
;   temperatureName,Primary Extruder,Heated Bed
;   temperatureNumber,0,1
;   temperatureSetpointCount,1,1
;   temperatureSetpointLayers,1,1
;   temperatureSetpointTemperatures,230,100
;   temperatureStabilizeAtStartup,1,1
;   temperatureHeatedBed,0,1
;   temperatureRelayBetweenLayers,0,0
;   temperatureRelayBetweenLoops,0,0
;   fanLayers,1,2
;   fanSpeeds,0,40
;   blipFanToFullPower,1
;   adjustSpeedForCooling,1
;   minSpeedLayerTime,20
;   minCoolingSpeedSlowdown,60
;   increaseFanForCooling,1
;   minFanLayerTime,45
;   maxCoolingFanSpeed,80
;   increaseFanForBridging,1
;   bridgingFanSpeed,100
;   use5D,1
;   relativeEdistances,0
;   allowEaxisZeroing,1
;   independentExtruderAxes,0
;   includeM10123,0
;   stickySupport,1
;   applyToolheadOffsets,0
;   gcodeXoffset,0
;   gcodeYoffset,0
;   gcodeZoffset,0
;   overrideMachineDefinition,1
;   machineTypeOverride,0
;   strokeXoverride,298
;   strokeYoverride,275
;   strokeZoverride,250
;   originOffsetXoverride,0
;   originOffsetYoverride,0
;   originOffsetZoverride,0
;   homeXdirOverride,-1
;   homeYdirOverride,-1
;   homeZdirOverride,-1
;   flipXoverride,1
;   flipYoverride,-1
;   flipZoverride,1
;   toolheadOffsets,0,0|0,0|0,0|0,0|0,0|0,0
;   overrideFirmwareConfiguration,1
;   firmwareTypeOverride,RepRap (Marlin/Repetier/Sprinter)
;   GPXconfigOverride,r2
;   baudRateOverride,115200
;   overridePrinterModels,1
;   printerModelsOverride,LulzBot_TAZ3.stl
;   startingGcode,G28 ; home all axes
;   layerChangeGcode,
;   retractionGcode,
;   toolChangeGcode,
;   endingGcode,M400,M104 S0                        ; hotend off,M140 S0                        ; heated bed heater off (if you have it),M107                           ; fans off,G91                            ; relative positioning,G1 E-1 F300                    ; retract the filament a bit before lifting the nozzle, to release some of the pressure,G1 Z1 F3000   ; move Z up a bit and retract filament even more,G90                            ; absolute positioning,G1 X0 Y250                     ; move to cooling position,M84                            ; steppers off,G90                            ; absolute positioning,M117 TAZ Ready.,;{profile_string}
;   exportFileFormat,gcode
;   celebration,0
;   celebrationSong,Random Song
;   postProcessing,
;   defaultSpeed,3600
;   outlineUnderspeed,0.5
;   solidInfillUnderspeed,0.8
;   supportUnderspeed,0.8
;   rapidXYspeed,4800
;   rapidZspeed,1002
;   minBridgingArea,50
;   bridgingExtraInflation,0
;   bridgingExtrusionMultiplier,1
;   bridgingSpeedMultiplier,1
;   useFixedBridgingAngle,0
;   fixedBridgingAngle,0
;   applyBridgingToPerimeters,0
;   filamentDiameters,2.85|2.9|2.9|2.9|2.9|2.9
;   filamentPricesPerKg,13|13|13|13|13|13
;   filamentDensities,1.05|1.05|1.05|1.05|1.05|1.05
;   useMinPrintHeight,0
;   minPrintHeight,10
;   useMaxPrintHeight,0
;   maxPrintHeight,10
;   useDiaphragm,0
;   diaphragmLayerInterval,20
;   robustSlicing,1
;   mergeAllIntoSolid,0
;   onlyRetractWhenCrossingOutline,1
;   retractBetweenLayers,1
;   useRetractionMinTravel,0
;   retractionMinTravel,3
;   retractWhileWiping,0
;   onlyWipeOutlines,1
;   avoidCrossingOutline,0
;   maxMovementDetourFactor,3
;   toolChangeRetractionDistance,12
;   toolChangeExtraRestartDistance,-0.5
;   toolChangeRetractionSpeed,600
;   externalThinWallType,0
;   internalThinWallType,2
;   thinWallAllowedOverlapPercentage,10
;   singleExtrusionMinLength,1
;   singleExtrusionMinPrintingWidthPercentage,50
;   singleExtrusionMaxPrintingWidthPercentage,200
;   singleExtrusionEndpointExtension,0.2
;   horizontalSizeCompensation,0
G90
M82
M106 S255
G4 P500
M106 S0
M140 S100
M190 S100
M104 S230 T0
M109 S230 T0
G28 ; home all axes
G92 E0
G1 E-1.5000 F900
G1 Z0.250 F1002
; process Process1
; layer 1, Z = 0.250
T0
; tool H0.250 W0.630
; skirt
G1 X59.001 Y39.017 F4800
G1 E0.0000 F270
G92 E0
G1 X60.231 Y37.787 E0.0442 F1800
G1 X221.971 Y37.787 E4.1572
G1 X223.201 Y39.017 E4.2014
G1 X223.201 Y200.756 E8.3144
G1 X221.971 Y201.987 E8.3586
G1 X60.231 Y201.987 E12.4716
G1 X59.001 Y200.756 E12.5158
G1 X59.001 Y39.317 E16.6212
G1 X59.001 Y39.017 F1800
G1 X59.601 Y39.265 F4800
G92 E0
G1 X60.480 Y38.387 E0.0316 F1800
G1 X221.722 Y38.387 E4.1319
G1 X222.601 Y39.265 E4.1635
G1 X222.601 Y200.508 E8.2638
G1 X221.722 Y201.387 E8.2954
G1 X60.480 Y201.387 E12.3958
G1 X59.601 Y200.508 E12.4274
G1 X59.601 Y39.565 E16.5201
G1 X59.601 Y39.265 F1800
G1 X60.201 Y39.514 F4800
G92 E0
G1 X60.728 Y38.987 E0.0190 F1800
G1 X221.474 Y38.987 E4.1066
G1 X222.001 Y39.514 E4.1256
G1 X222.001 Y200.259 E8.2133
G1 X221.474 Y200.787 E8.2322
G1 X60.728 Y200.787 E12.3199
G1 X60.201 Y200.259 E12.3389
G1 X60.201 Y39.814 E16.4189
G1 X60.201 Y39.514 F1800
G1 X60.801 Y39.762 F4800
G92 E0
G1 X60.977 Y39.587 E0.0063 F1800
G1 X221.225 Y39.587 E4.0814
G1 X221.401 Y39.762 E4.0877
G1 X221.401 Y200.011 E8.1627
G1 X221.225 Y200.187 E8.1690
G1 X60.977 Y200.187 E12.2441
G1 X60.801 Y200.011 E12.2504
G1 X60.801 Y40.062 E16.3178
G1 X60.801 Y39.762 F1800
G92 E0
G1 E-1.5000 F900
; outer perimeter
G1 X61.416 Y40.202 F4800
G1 E0.0000 F900
G92 E0
G1 X220.786 Y40.202 E4.0527 F900
G1 X220.786 Y199.572 E8.1054
G1 X61.416 Y199.572 E12.1581
G1 X61.416 Y40.502 E16.2032
G1 X61.416 Y40.202 F900
G1 X61.786 Y40.572 F4800
G92 E0
G1 X61.786 Y48.202 E0.1940 F900
G1 X70.916 Y48.202 E0.4262
G1 X70.916 Y40.572 E0.6202
G1 X62.086 Y40.572 E0.8448
G1 X61.786 Y40.572 F900
G1 X61.786 Y48.572 F4800
G92 E0
G1 X61.786 Y58.202 E0.2449 F900
G1 X70.916 Y58.202 E0.4771
G1 X70.916 Y48.572 E0.7219
G1 X62.086 Y48.572 E0.9465
G1 X61.786 Y48.572 F900
G1 X71.286 Y48.572 F4800
G92 E0
G1 X71.286 Y58.202 E0.2449 F900
G1 X80.916 Y58.202 E0.4898
G1 X80.916 Y48.572 E0.7347
G1 X71.586 Y48.572 E0.9719
G1 X71.286 Y48.572 F900
G1 X71.286 Y48.202 F4800
G92 E0
G1 X80.916 Y48.202 E0.2449 F900
G1 X80.916 Y40.572 E0.4389
G1 X71.286 Y40.572 E0.6838
G1 X71.286 Y47.902 E0.8702
G1 X71.286 Y48.202 F900
G1 X81.286 Y48.202 F4800
G92 E0
G1 X90.916 Y48.202 E0.2449 F900
G1 X90.916 Y40.572 E0.4389
G1 X81.286 Y40.572 E0.6838
G1 X81.286 Y47.902 E0.8702
G1 X81.286 Y48.202 F900
G1 X81.286 Y48.572 F4800
G92 E0
G1 X81.286 Y58.202 E0.2449 F900
G1 X90.916 Y58.202 E0.4898
G1 X90.916 Y48.572 E0.7347
G1 X81.586 Y48.572 E0.9719
G1 X81.286 Y48.572 F900
G1 X91.286 Y48.572 F4800
G92 E0
G1 X91.286 Y58.202 E0.2449 F900
G1 X100.916 Y58.202 E0.4898
G1 X100.916 Y48.572 E0.7347
G1 X91.586 Y48.572 E0.9719
G1 X91.286 Y48.572 F900
G1 X91.286 Y48.202 F4800
G92 E0
G1 X100.916 Y48.202 E0.2449 F900
G1 X100.916 Y40.572 E0.4389
G1 X91.286 Y40.572 E0.6838
G1 X91.286 Y47.902 E0.8702
G1 X91.286 Y48.202 F900
G1 X101.286 Y48.202 F4800
G92 E0
G1 X110.916 Y48.202 E0.2449 F900
G1 X110.916 Y40.572 E0.4389
G1 X101.286 Y40.572 E0.6838
G1 X101.286 Y47.902 E0.8702
G1 X101.286 Y48.202 F900
G1 X101.286 Y48.572 F4800
G92 E0
G1 X101.286 Y58.202 E0.2449 F900
G1 X110.916 Y58.202 E0.4898
G1 X110.916 Y48.572 E0.7347
G1 X101.586 Y48.572 E0.9719
G1 X101.286 Y48.572 F900
G1 X111.286 Y48.572 F4800
G92 E0
G1 X111.286 Y58.202 E0.2449 F900
G1 X120.916 Y58.202 E0.4898
G1 X120.916 Y48.572 E0.7347
G1 X111.586 Y48.572 E0.9719
G1 X111.286 Y48.572 F900
G1 X111.286 Y48.202 F4800
G92 E0
G1 X120.916 Y48.202 E0.2449 F900
G1 X120.916 Y40.572 E0.4389
G1 X111.286 Y40.572 E0.6838
G1 X111.286 Y47.902 E0.8702
G1 X111.286 Y48.202 F900
G1 X121.286 Y48.202 F4800
G92 E0
G1 X130.916 Y48.202 E0.2449 F900
G1 X130.916 Y40.572 E0.4389
G1 X121.286 Y40.572 E0.6838
G1 X121.286 Y47.902 E0.8702
G1 X121.286 Y48.202 F900
G1 X121.286 Y48.572 F4800
G92 E0
G1 X121.286 Y58.202 E0.2449 F900
G1 X130.916 Y58.202 E0.4898
G1 X130.916 Y48.572 E0.7347
G1 X121.586 Y48.572 E0.9719
G1 X121.286 Y48.572 F900
G1 X131.286 Y48.572 F4800
G92 E0
G1 X131.286 Y58.202 E0.2449 F900
G1 X140.916 Y58.202 E0.4898
G1 X140.916 Y48.572 E0.7347
G1 X131.586 Y48.572 E0.9719
G1 X131.286 Y48.572 F900
G1 X131.286 Y48.202 F4800
G92 E0
G1 X140.916 Y48.202 E0.2449 F900
G1 X140.916 Y40.572 E0.4389
G1 X131.286 Y40.572 E0.6838
G1 X131.286 Y47.902 E0.8702
G1 X131.286 Y48.202 F900
G1 X141.286 Y48.202 F4800
G92 E0
G1 X150.916 Y48.202 E0.2449 F900
G1 X150.916 Y40.572 E0.4389
G1 X141.286 Y40.572 E0.6838
G1 X141.286 Y47.902 E0.8702
G1 X141.286 Y48.202 F900
G1 X141.286 Y48.572 F4800
G92 E0
G1 X141.286 Y58.202 E0.2449 F900
G1 X150.916 Y58.202 E0.4898
G1 X150.916 Y48.572 E0.7347
G1 X141.586 Y48.572 E0.9719
G1 X141.286 Y48.572 F900
G1 X151.286 Y48.572 F4800
G92 E0
G1 X151.286 Y58.202 E0.2449 F900
G1 X160.916 Y58.202 E0.4898
G1 X160.916 Y48.572 E0.7347
G1 X151.586 Y48.572 E0.9719
G1 X151.286 Y48.572 F900
G1 X151.286 Y48.202 F4800
G92 E0
G1 X160.916 Y48.202 E0.2449 F900
G1 X160.916 Y40.572 E0.4389
G1 X151.286 Y40.572 E0.6838
G1 X151.286 Y47.902 E0.8702
G1 X151.286 Y48.202 F900
G1 X161.286 Y48.202 F4800
G92 E0
G1 X170.916 Y48.202 E0.2449 F900
G1 X170.916 Y40.572 E0.4389
G1 X161.286 Y40.572 E0.6838
G1 X161.286 Y47.902 E0.8702
G1 X161.286 Y48.202 F900
G1 X161.286 Y48.572 F4800
G92 E0
G1 X161.286 Y58.202 E0.2449 F900
G1 X170.916 Y58.202 E0.4898
G1 X170.916 Y48.572 E0.7347
G1 X161.586 Y48.572 E0.9719
G1 X161.286 Y48.572 F900
G1 X171.286 Y48.572 F4800
G92 E0
G1 X171.286 Y58.202 E0.2449 F900
G1 X180.916 Y58.202 E0.4898
G1 X180.916 Y48.572 E0.7347
G1 X171.586 Y48.572 E0.9719
G1 X171.286 Y48.572 F900
G1 X171.286 Y48.202 F4800
G92 E0
G1 X180.916 Y48.202 E0.2449 F900
G1 X180.916 Y40.572 E0.4389
G1 X171.286 Y40.572 E0.6838
G1 X171.286 Y47.902 E0.8702
G1 X171.286 Y48.202 F900
G1 X181.286 Y48.202 F4800
G92 E0
G1 X190.916 Y48.202 E0.2449 F900
G1 X190.916 Y40.572 E0.4389
G1 X181.286 Y40.572 E0.6838
G1 X181.286 Y47.902 E0.8702
G1 X181.286 Y48.202 F900
G1 X181.286 Y48.572 F4800
G92 E0
G1 X181.286 Y58.202 E0.2449 F900
G1 X190.916 Y58.202 E0.4898
G1 X190.916 Y48.572 E0.7347
G1 X181.586 Y48.572 E0.9719
G1 X181.286 Y48.572 F900
G1 X191.286 Y48.572 F4800
G92 E0
G1 X191.286 Y58.202 E0.2449 F900
G1 X200.916 Y58.202 E0.4898
G1 X200.916 Y48.572 E0.7347
G1 X191.586 Y48.572 E0.9719
G1 X191.286 Y48.572 F900
G1 X191.286 Y48.202 F4800
G92 E0
G1 X200.916 Y48.202 E0.2449 F900
G1 X200.916 Y40.572 E0.4389
G1 X191.286 Y40.572 E0.6838
G1 X191.286 Y47.902 E0.8702
G1 X191.286 Y48.202 F900
G1 X201.286 Y48.202 F4800
G92 E0
G1 X210.916 Y48.202 E0.2449 F900
G1 X210.916 Y40.572 E0.4389
G1 X201.286 Y40.572 E0.6838
G1 X201.286 Y47.902 E0.8702
G1 X201.286 Y48.202 F900
G1 X201.286 Y48.572 F4800
G92 E0
G1 X201.286 Y58.202 E0.2449 F900
G1 X210.916 Y58.202 E0.4898
G1 X210.916 Y48.572 E0.7347
G1 X201.586 Y48.572 E0.9719
G1 X201.286 Y48.572 F900
G1 X211.286 Y48.572 F4800
G92 E0
G1 X211.286 Y58.202 E0.2449 F900
G1 X220.416 Y58.202 E0.4771
G1 X220.416 Y48.572 E0.7219
G1 X211.586 Y48.572 E0.9465
G1 X211.286 Y48.572 F900
G1 X211.286 Y48.202 F4800
G92 E0
G1 X220.416 Y48.202 E0.2322 F900
G1 X220.416 Y40.572 E0.4262
G1 X211.286 Y40.572 E0.6584
G1 X211.286 Y47.902 E0.8448
G1 X211.286 Y48.202 F900
G1 X211.286 Y58.572 F4800
G92 E0
G1 X211.286 Y68.202 E0.2449 F900
G1 X220.416 Y68.202 E0.4771
G1 X220.416 Y58.572 E0.7219
G1 X211.586 Y58.572 E0.9465
G1 X211.286 Y58.572 F900
G1 X210.916 Y58.572 F4800
G92 E0
G1 X201.286 Y58.572 E0.2449 F900
G1 X201.286 Y68.202 E0.4898
G1 X210.916 Y68.202 E0.7347
G1 X210.916 Y58.872 E0.9719
G1 X210.916 Y58.572 F900
G1 X200.916 Y58.572 F4800
G92 E0
G1 X191.286 Y58.572 E0.2449 F900
G1 X191.286 Y68.202 E0.4898
G1 X200.916 Y68.202 E0.7347
G1 X200.916 Y58.872 E0.9719
G1 X200.916 Y58.572 F900
G1 X190.916 Y58.572 F4800
G92 E0
G1 X181.286 Y58.572 E0.2449 F900
G1 X181.286 Y68.202 E0.4898
G1 X190.916 Y68.202 E0.7347
G1 X190.916 Y58.872 E0.9719
G1 X190.916 Y58.572 F900
G1 X180.916 Y58.572 F4800
G92 E0
G1 X171.286 Y58.572 E0.2449 F900
G1 X171.286 Y68.202 E0.4898
G1 X180.916 Y68.202 E0.7347
G1 X180.916 Y58.872 E0.9719
G1 X180.916 Y58.572 F900
G1 X170.916 Y58.572 F4800
G92 E0
G1 X161.286 Y58.572 E0.2449 F900
G1 X161.286 Y68.202 E0.4898
G1 X170.916 Y68.202 E0.7347
G1 X170.916 Y58.872 E0.9719
G1 X170.916 Y58.572 F900
G1 X160.916 Y58.572 F4800
G92 E0
G1 X151.286 Y58.572 E0.2449 F900
G1 X151.286 Y68.202 E0.4898
G1 X160.916 Y68.202 E0.7347
G1 X160.916 Y58.872 E0.9719
G1 X160.916 Y58.572 F900
G1 X150.916 Y58.572 F4800
G92 E0
G1 X141.286 Y58.572 E0.2449 F900
G1 X141.286 Y68.202 E0.4898
G1 X150.916 Y68.202 E0.7347
G1 X150.916 Y58.872 E0.9719
G1 X150.916 Y58.572 F900
G1 X140.916 Y58.572 F4800
G92 E0
G1 X131.286 Y58.572 E0.2449 F900
G1 X131.286 Y68.202 E0.4898
G1 X140.916 Y68.202 E0.7347
G1 X140.916 Y58.872 E0.9719
G1 X140.916 Y58.572 F900
G1 X130.916 Y58.572 F4800
G92 E0
G1 X121.286 Y58.572 E0.2449 F900
G1 X121.286 Y68.202 E0.4898
G1 X130.916 Y68.202 E0.7347
G1 X130.916 Y58.872 E0.9719
G1 X130.916 Y58.572 F900
G1 X120.916 Y58.572 F4800
G92 E0
G1 X111.286 Y58.572 E0.2449 F900
G1 X111.286 Y68.202 E0.4898
G1 X120.916 Y68.202 E0.7347
G1 X120.916 Y58.872 E0.9719
G1 X120.916 Y58.572 F900
G1 X110.916 Y58.572 F4800
G92 E0
G1 X101.286 Y58.572 E0.2449 F900
G1 X101.286 Y68.202 E0.4898
G1 X110.916 Y68.202 E0.7347
G1 X110.916 Y58.872 E0.9719
G1 X110.916 Y58.572 F900
G1 X100.916 Y58.572 F4800
G92 E0
G1 X91.286 Y58.572 E0.2449 F900
G1 X91.286 Y68.202 E0.4898
G1 X100.916 Y68.202 E0.7347
G1 X100.916 Y58.872 E0.9719
G1 X100.916 Y58.572 F900
G1 X90.916 Y58.572 F4800
G92 E0
G1 X81.286 Y58.572 E0.2449 F900
G1 X81.286 Y68.202 E0.4898
G1 X90.916 Y68.202 E0.7347
G1 X90.916 Y58.872 E0.9719
G1 X90.916 Y58.572 F900
G1 X80.916 Y58.572 F4800
G92 E0
G1 X71.286 Y58.572 E0.2449 F900
G1 X71.286 Y68.202 E0.4898
G1 X80.916 Y68.202 E0.7347
G1 X80.916 Y58.872 E0.9719
G1 X80.916 Y58.572 F900
G1 X70.916 Y58.572 F4800
G92 E0
G1 X61.786 Y58.572 E0.2322 F900
G1 X61.786 Y68.202 E0.4771
G1 X70.916 Y68.202 E0.7092
