; G-Code generated by Simplify3D(R) Version 4.0.0
; Dec 10, 2018 at 8:36:25 PM
; Settings Summary
;   processName,Process1
;   applyToModels,FrontCover
;   profileName,ABSX200 (modified)
;   profileVersion,2018-05-09 09:22:02
;   baseProfile,Default(2)(2)(2)(2)(2) (modified)
;   printMaterial,
;   printQuality,
;   printExtruders,
;   extruderName,Primary Extruder
;   extruderToolheadNumber,0
;   extruderDiameter,0.5
;   extruderAutoWidth,1
;   extruderWidth,0.6
;   extrusionMultiplier,1.03
;   extruderUseRetract,1
;   extruderRetractionDistance,1.5
;   extruderExtraRestartDistance,0
;   extruderRetractionZLift,0
;   extruderRetractionSpeed,900
;   extruderUseCoasting,1
;   extruderCoastingDistance,0.3
;   extruderUseWipe,0
;   extruderWipeDistance,5
;   primaryExtruder,0
;   layerHeight,0.25
;   topSolidLayers,4
;   bottomSolidLayers,3
;   perimeterOutlines,2
;   printPerimetersInsideOut,1
;   startPointOption,2
;   startPointOriginX,0
;   startPointOriginY,0
;   sequentialIslands,0
;   spiralVaseMode,0
;   firstLayerHeightPercentage,100
;   firstLayerWidthPercentage,105
;   firstLayerUnderspeed,0.5
;   useRaft,0
;   raftExtruder,0
;   raftTopLayers,3
;   raftBaseLayers,0
;   raftOffset,3
;   raftSeparationDistance,0.14
;   raftTopInfill,100
;   aboveRaftSpeedMultiplier,0.3
;   useSkirt,1
;   skirtExtruder,0
;   skirtLayers,1
;   skirtOutlines,4
;   skirtOffset,0
;   usePrimePillar,0
;   primePillarExtruder,999
;   primePillarWidth,12
;   primePillarLocation,7
;   primePillarSpeedMultiplier,1
;   useOozeShield,0
;   oozeShieldExtruder,999
;   oozeShieldOffset,2
;   oozeShieldOutlines,1
;   oozeShieldSidewallShape,1
;   oozeShieldSidewallAngle,30
;   oozeShieldSpeedMultiplier,1
;   infillExtruder,0
;   internalInfillPattern,Rectilinear
;   externalInfillPattern,Rectilinear
;   infillPercentage,20
;   outlineOverlapPercentage,15
;   infillExtrusionWidthPercentage,200
;   minInfillLength,2
;   infillLayerInterval,1
;   internalInfillAngles,45,-45
;   overlapInternalInfillAngles,0
;   externalInfillAngles,45,-45
;   generateSupport,1
;   supportExtruder,0
;   supportInfillPercentage,20
;   supportExtraInflation,1
;   supportBaseLayers,0
;   denseSupportExtruder,0
;   denseSupportLayers,0
;   denseSupportInfillPercentage,70
;   supportLayerInterval,1
;   supportHorizontalPartOffset,0.5
;   supportUpperSeparationLayers,1
;   supportLowerSeparationLayers,1
;   supportType,0
;   supportGridSpacing,1
;   maxOverhangAngle,45
;   supportAngles,90
;   temperatureName,Primary Extruder,Heated Bed
;   temperatureNumber,0,1
;   temperatureSetpointCount,1,1
;   temperatureSetpointLayers,1,1
;   temperatureSetpointTemperatures,230,100
;   temperatureStabilizeAtStartup,1,1
;   temperatureHeatedBed,0,1
;   temperatureRelayBetweenLayers,0,0
;   temperatureRelayBetweenLoops,0,0
;   fanLayers,1,2
;   fanSpeeds,0,40
;   blipFanToFullPower,1
;   adjustSpeedForCooling,1
;   minSpeedLayerTime,20
;   minCoolingSpeedSlowdown,60
;   increaseFanForCooling,1
;   minFanLayerTime,45
;   maxCoolingFanSpeed,80
;   increaseFanForBridging,1
;   bridgingFanSpeed,100
;   use5D,1
;   relativeEdistances,0
;   allowEaxisZeroing,1
;   independentExtruderAxes,0
;   includeM10123,0
;   stickySupport,1
;   applyToolheadOffsets,0
;   gcodeXoffset,0
;   gcodeYoffset,0
;   gcodeZoffset,0
;   overrideMachineDefinition,1
;   machineTypeOverride,0
;   strokeXoverride,298
;   strokeYoverride,275
;   strokeZoverride,250
;   originOffsetXoverride,0
;   originOffsetYoverride,0
;   originOffsetZoverride,0
;   homeXdirOverride,-1
;   homeYdirOverride,-1
;   homeZdirOverride,-1
;   flipXoverride,1
;   flipYoverride,-1
;   flipZoverride,1
;   toolheadOffsets,0,0|0,0|0,0|0,0|0,0|0,0
;   overrideFirmwareConfiguration,1
;   firmwareTypeOverride,RepRap (Marlin/Repetier/Sprinter)
;   GPXconfigOverride,r2
;   baudRateOverride,115200
;   overridePrinterModels,1
;   printerModelsOverride,LulzBot_TAZ3.stl
;   startingGcode,G28 ; home all axes
;   layerChangeGcode,
;   retractionGcode,
;   toolChangeGcode,
;   endingGcode,M400,M104 S0                        ; hotend off,M140 S0                        ; heated bed heater off (if you have it),M107                           ; fans off,G91                            ; relative positioning,G1 E-1 F300                    ; retract the filament a bit before lifting the nozzle, to release some of the pressure,G1 Z1 F3000   ; move Z up a bit and retract filament even more,G90                            ; absolute positioning,G1 X0 Y250                     ; move to cooling position,M84                            ; steppers off,G90                            ; absolute positioning,M117 TAZ Ready.,;{profile_string}
;   exportFileFormat,gcode
;   celebration,0
;   celebrationSong,Random Song
;   postProcessing,
;   defaultSpeed,2400
;   outlineUnderspeed,0.5
;   solidInfillUnderspeed,0.8
;   supportUnderspeed,0.8
;   rapidXYspeed,4800
;   rapidZspeed,1002
;   minBridgingArea,50
;   bridgingExtraInflation,0
;   bridgingExtrusionMultiplier,1
;   bridgingSpeedMultiplier,1
;   useFixedBridgingAngle,0
;   fixedBridgingAngle,0
;   applyBridgingToPerimeters,0
;   filamentDiameters,2.85|2.9|2.9|2.9|2.9|2.9
;   filamentPricesPerKg,13|13|13|13|13|13
;   filamentDensities,1.05|1.05|1.05|1.05|1.05|1.05
;   useMinPrintHeight,0
;   minPrintHeight,10
;   useMaxPrintHeight,0
;   maxPrintHeight,10
;   useDiaphragm,0
;   diaphragmLayerInterval,20
;   robustSlicing,1
;   mergeAllIntoSolid,0
;   onlyRetractWhenCrossingOutline,1
;   retractBetweenLayers,1
;   useRetractionMinTravel,0
;   retractionMinTravel,3
;   retractWhileWiping,0
;   onlyWipeOutlines,1
;   avoidCrossingOutline,0
;   maxMovementDetourFactor,3
;   toolChangeRetractionDistance,12
;   toolChangeExtraRestartDistance,-0.5
;   toolChangeRetractionSpeed,600
;   externalThinWallType,0
;   internalThinWallType,2
;   thinWallAllowedOverlapPercentage,10
;   singleExtrusionMinLength,1
;   singleExtrusionMinPrintingWidthPercentage,50
;   singleExtrusionMaxPrintingWidthPercentage,200
;   singleExtrusionEndpointExtension,0.2
;   horizontalSizeCompensation,0
G90
M82
M106 S255
G4 P500
M106 S0
M140 S100
M190 S100
M104 S230 T0
M109 S230 T0
G28 ; home all axes
G92 E0
G1 E-1.5000 F900
G1 Z0.250 F1002
; process Process1
; layer 1, Z = 0.250
T0
; tool H0.250 W0.630
; skirt
G1 X65.802 Y65.659 F4800
G1 E0.0000 F270
G92 E0
G1 X67.033 Y64.429 E0.0442 F1200
G1 X239.772 Y64.429 E4.4369
G1 X241.002 Y65.659 E4.4812
G1 X241.002 Y238.399 E8.8739
G1 X239.772 Y239.629 E8.9181
G1 X67.033 Y239.629 E13.3108
G1 X65.802 Y238.399 E13.3550
G1 X65.802 Y65.959 E17.7401
G1 X65.802 Y65.659 F1200
G1 X66.402 Y65.908 F4800
G92 E0
G1 X67.281 Y65.029 E0.0316 F1200
G1 X239.524 Y65.029 E4.4116
G1 X240.402 Y65.908 E4.4432
G1 X240.402 Y238.151 E8.8233
G1 X239.524 Y239.029 E8.8549
G1 X67.281 Y239.029 E13.2349
G1 X66.402 Y238.151 E13.2665
G1 X66.402 Y66.208 E17.6390
G1 X66.402 Y65.908 F1200
G1 X67.002 Y66.156 F4800
G92 E0
G1 X67.530 Y65.629 E0.0190 F1200
G1 X239.275 Y65.629 E4.3864
G1 X239.802 Y66.156 E4.4053
G1 X239.802 Y237.902 E8.7727
G1 X239.275 Y238.429 E8.7917
G1 X67.530 Y238.429 E13.1591
G1 X67.002 Y237.902 E13.1781
G1 X67.002 Y66.456 E17.5378
G1 X67.002 Y66.156 F1200
G1 X67.602 Y66.405 F4800
G92 E0
G1 X67.778 Y66.229 E0.0063 F1200
G1 X239.027 Y66.229 E4.3611
G1 X239.202 Y66.405 E4.3674
G1 X239.202 Y237.653 E8.7222
G1 X239.027 Y237.829 E8.7285
G1 X67.778 Y237.829 E13.0833
G1 X67.602 Y237.653 E13.0896
G1 X67.602 Y66.705 E17.4367
G1 X67.602 Y66.405 F1200
G92 E0
G1 E-1.5000 F900
; inner perimeter
G1 X68.847 Y67.474 F4800
G1 E0.0000 F900
G92 E0
G1 X237.957 Y67.474 E4.3004 F900
G1 X237.957 Y236.584 E8.6008
G1 X68.847 Y236.584 E12.9012
G1 X68.847 Y67.774 E17.1939
G1 X68.847 Y67.474 F900
; outer perimeter
G1 X68.217 Y66.844 F4800
G92 E0
G1 X238.587 Y66.844 E4.3324 F600
G1 X238.587 Y237.214 E8.6649
G1 X68.217 Y237.214 E12.9973
G1 X68.217 Y67.144 E17.3221
G1 X68.217 Y66.844 F600
; inner perimeter
G1 X72.957 Y71.584 F4800
G92 E0
G1 X72.957 Y232.474 E4.0914 F900
G1 X233.847 Y232.474 E8.1827
G1 X233.847 Y71.584 E12.2741
G1 X73.257 Y71.584 E16.3578
G1 X72.957 Y71.584 F900
; outer perimeter
G1 X73.587 Y72.214 F4800
G92 E0
G1 X73.587 Y231.844 E4.0593 F600
G1 X233.217 Y231.844 E8.1186
G1 X233.217 Y72.214 E12.1779
G1 X73.887 Y72.214 E16.2296
G1 X73.587 Y72.214 F600
G92 E0
G1 E-1.5000 F900
; solid layer
G1 X234.383 Y72.638 F4800
G1 E0.0000 F900
G92 E0
G1 X237.422 Y75.677 E0.1093 F960
G1 X237.422 Y76.568 E0.1319
G1 X234.383 Y73.529 E0.2412
G1 X234.383 Y74.420 E0.2639
G1 X237.422 Y77.459 E0.3732
G1 X237.422 Y78.350 E0.3958
G1 X234.383 Y75.311 E0.5051
G1 X234.383 Y76.202 E0.5278
G1 X237.422 Y79.241 E0.6371
G1 X237.422 Y80.132 E0.6597
G1 X234.383 Y77.093 E0.7690
G1 X234.383 Y77.984 E0.7917
G1 X237.422 Y81.023 E0.9010
G1 X237.422 Y81.914 E0.9236
G1 X234.383 Y78.875 E1.0329
G1 X234.383 Y79.766 E1.0556
G1 X237.422 Y82.805 E1.1649
G1 X237.422 Y83.695 E1.1875
G1 X234.383 Y80.656 E1.2968
G1 X234.383 Y81.547 E1.3195
G1 X237.422 Y84.586 E1.4288
G1 X237.422 Y85.477 E1.4514
G1 X234.383 Y82.438 E1.5607
G1 X234.383 Y83.329 E1.5834
G1 X237.422 Y86.368 E1.6927
G1 X237.422 Y87.259 E1.7153
G1 X234.383 Y84.220 E1.8246
G1 X234.383 Y85.111 E1.8473
G1 X237.422 Y88.150 E1.9566
G1 X237.422 Y89.041 E1.9792
G1 X234.383 Y86.002 E2.0885
G1 X234.383 Y86.893 E2.1112
G1 X237.422 Y89.932 E2.2204
G1 X237.422 Y90.823 E2.2431
G1 X234.383 Y87.784 E2.3524
G1 X234.383 Y88.675 E2.3751
G1 X237.422 Y91.714 E2.4843
G1 X237.422 Y92.605 E2.5070
G1 X234.383 Y89.566 E2.6163
G1 X234.383 Y90.457 E2.6389
G1 X237.422 Y93.496 E2.7482
G1 X237.422 Y94.387 E2.7709
G1 X234.383 Y91.348 E2.8802
G1 X234.383 Y92.239 E2.9028
G1 X237.422 Y95.278 E3.0121
G1 X237.422 Y96.169 E3.0348
G1 X234.383 Y93.130 E3.1441
G1 X234.383 Y94.021 E3.1667
G1 X237.422 Y97.060 E3.2760
G1 X237.422 Y97.951 E3.2987
G1 X234.383 Y94.912 E3.4080
G1 X234.383 Y95.803 E3.4306
G1 X237.422 Y98.842 E3.5399
G1 X237.422 Y99.733 E3.5626
G1 X234.383 Y96.694 E3.6719
G1 X234.383 Y97.585 E3.6945
G1 X237.422 Y100.624 E3.8038
G1 X237.422 Y101.515 E3.8265
G1 X234.383 Y98.476 E3.9358
G1 X234.383 Y99.367 E3.9584
G1 X237.422 Y102.406 E4.0677
G1 X237.422 Y103.296 E4.0904
G1 X234.383 Y100.257 E4.1997
G1 X234.383 Y101.148 E4.2223
G1 X237.422 Y104.187 E4.3316
G1 X237.422 Y105.078 E4.3543
G1 X234.383 Y102.039 E4.4636
G1 X234.383 Y102.930 E4.4862
G1 X237.422 Y105.969 E4.5955
G1 X237.422 Y106.860 E4.6182
G1 X234.383 Y103.821 E4.7275
G1 X234.383 Y104.712 E4.7501
G1 X237.422 Y107.751 E4.8594
G1 X237.422 Y108.642 E4.8821
G1 X234.383 Y105.603 E4.9913
G1 X234.383 Y106.494 E5.0140
G1 X237.422 Y109.533 E5.1233
G1 X237.422 Y110.424 E5.1459
G1 X234.383 Y107.385 E5.2552
G1 X234.383 Y108.276 E5.2779
G1 X237.422 Y111.315 E5.3872
G1 X237.422 Y112.206 E5.4098
G1 X234.383 Y109.167 E5.5191
G1 X234.383 Y110.058 E5.5418
G1 X237.422 Y113.097 E5.6511
G1 X237.422 Y113.988 E5.6737
G1 X234.383 Y110.949 E5.7830
G1 X234.383 Y111.840 E5.8057
G1 X237.422 Y114.879 E5.9150
G1 X237.422 Y115.770 E5.9376
G1 X234.383 Y112.731 E6.0469
G1 X234.383 Y113.622 E6.0696
G1 X237.422 Y116.661 E6.1789
G1 X237.422 Y117.552 E6.2015
G1 X234.383 Y114.513 E6.3108
G1 X234.383 Y115.404 E6.3335
G1 X237.422 Y118.443 E6.4428
G1 X237.422 Y119.334 E6.4654
G1 X234.383 Y116.295 E6.5747
G1 X234.383 Y117.186 E6.5974
G1 X237.422 Y120.225 E6.7067
G1 X237.422 Y121.116 E6.7293
G1 X234.383 Y118.077 E6.8386
G1 X234.383 Y118.968 E6.8613
G1 X237.422 Y122.007 E6.9706
G1 X237.422 Y122.897 E6.9932
G1 X234.383 Y119.858 E7.1025
G1 X234.383 Y120.749 E7.1252
G1 X237.422 Y123.788 E7.2345
G1 X237.422 Y124.679 E7.2571
G1 X234.383 Y121.640 E7.3664
G1 X234.383 Y122.531 E7.3891
G1 X237.422 Y125.570 E7.4983
G1 X237.422 Y126.461 E7.5210
G1 X234.383 Y123.422 E7.6303
G1 X234.383 Y124.313 E7.6530
G1 X237.422 Y127.352 E7.7622
G1 X237.422 Y128.243 E7.7849
G1 X234.383 Y125.204 E7.8942
G1 X234.383 Y126.095 E7.9168
G1 X237.422 Y129.134 E8.0261
G1 X237.422 Y130.025 E8.0488
G1 X234.383 Y126.986 E8.1581
G1 X234.383 Y127.877 E8.1807
G1 X237.422 Y130.916 E8.2900
G1 X237.422 Y131.807 E8.3127
G1 X234.383 Y128.768 E8.4220
G1 X234.383 Y129.659 E8.4446
G1 X237.422 Y132.698 E8.5539
G1 X237.422 Y133.589 E8.5766
G1 X234.383 Y130.550 E8.6859
G1 X234.383 Y131.441 E8.7085
G1 X237.422 Y134.480 E8.8178
G1 X237.422 Y135.371 E8.8405
G1 X234.383 Y132.332 E8.9498
G1 X234.383 Y133.223 E8.9724
G1 X237.422 Y136.262 E9.0817
G1 X237.422 Y137.153 E9.1044
G1 X234.383 Y134.114 E9.2137
G1 X234.383 Y135.005 E9.2363
G1 X237.422 Y138.044 E9.3456
G1 X237.422 Y138.935 E9.3683
G1 X234.383 Y135.896 E9.4776
G1 X234.383 Y136.787 E9.5002
G1 X237.422 Y139.826 E9.6095
G1 X237.422 Y140.717 E9.6322
G1 X234.383 Y137.678 E9.7415
G1 X234.383 Y138.569 E9.7641
G1 X237.422 Y141.608 E9.8734
G1 X237.422 Y142.498 E9.8961
G1 X234.383 Y139.459 E10.0053
G1 X234.383 Y140.350 E10.0280
G1 X237.422 Y143.389 E10.1373
G1 X237.422 Y144.280 E10.1600
G1 X234.383 Y141.241 E10.2692
G1 X234.383 Y142.132 E10.2919
G1 X237.422 Y145.171 E10.4012
G1 X237.422 Y146.062 E10.4238
G1 X234.383 Y143.023 E10.5331
G1 X234.383 Y143.914 E10.5558
G1 X237.422 Y146.953 E10.6651
G1 X237.422 Y147.844 E10.6877
G1 X234.383 Y144.805 E10.7970
G1 X234.383 Y145.696 E10.8197
G1 X237.422 Y148.735 E10.9290
G1 X237.422 Y149.626 E10.9516
G1 X234.383 Y146.587 E11.0609
G1 X234.383 Y147.478 E11.0836
G1 X237.422 Y150.517 E11.1929
G1 X237.422 Y151.408 E11.2155
G1 X234.383 Y148.369 E11.3248
G1 X234.383 Y149.260 E11.3475
G1 X237.422 Y152.299 E11.4568
G1 X237.422 Y153.190 E11.4794
G1 X234.383 Y150.151 E11.5887
G1 X234.383 Y151.042 E11.6114
G1 X237.422 Y154.081 E11.7207
G1 X237.422 Y154.972 E11.7433
G1 X234.383 Y151.933 E11.8526
G1 X234.383 Y152.824 E11.8753
G1 X237.422 Y155.863 E11.9846
G1 X237.422 Y156.754 E12.0072
G1 X234.383 Y153.715 E12.1165
G1 X234.383 Y154.606 E12.1392
G1 X237.422 Y157.645 E12.2485
G1 X237.422 Y158.536 E12.2711
G1 X234.383 Y155.497 E12.3804
G1 X234.383 Y156.388 E12.4031
G1 X237.422 Y159.427 E12.5123
G1 X237.422 Y160.318 E12.5350
G1 X234.383 Y157.279 E12.6443
G1 X234.383 Y158.170 E12.6670
G1 X237.422 Y161.209 E12.7762
G1 X237.422 Y162.099 E12.7989
G1 X234.383 Y159.060 E12.9082
G1 X234.383 Y159.951 E12.9308
G1 X237.422 Y162.990 E13.0401
G1 X237.422 Y163.881 E13.0628
G1 X234.383 Y160.842 E13.1721
G1 X234.383 Y161.733 E13.1947
G1 X237.422 Y164.772 E13.3040
G1 X237.422 Y165.663 E13.3267
G1 X234.383 Y162.624 E13.4360
G1 X234.383 Y163.515 E13.4586
G1 X237.422 Y166.554 E13.5679
G1 X237.422 Y167.445 E13.5906
G1 X234.383 Y164.406 E13.6999
G1 X234.383 Y165.297 E13.7225
G1 X237.422 Y168.336 E13.8318
G1 X237.422 Y169.227 E13.8545
G1 X234.383 Y166.188 E13.9638
G1 X234.383 Y167.079 E13.9864
G1 X237.422 Y170.118 E14.0957
G1 X237.422 Y171.009 E14.1184
G1 X234.383 Y167.970 E14.2277
G1 X234.383 Y168.861 E14.2503
G1 X237.422 Y171.900 E14.3596
G1 X237.422 Y172.791 E14.3823
G1 X234.383 Y169.752 E14.4916
G1 X234.383 Y170.643 E14.5142
G1 X237.422 Y173.682 E14.6235
G1 X237.422 Y174.573 E14.6462
G1 X234.383 Y171.534 E14.7555
G1 X234.383 Y172.425 E14.7781
G1 X237.422 Y175.464 E14.8874
G1 X237.422 Y176.355 E14.9101
G1 X234.383 Y173.316 E15.0193
G1 X234.383 Y174.207 E15.0420
G1 X237.422 Y177.246 E15.1513
G1 X237.422 Y178.137 E15.1740
G1 X234.383 Y175.098 E15.2832
G1 X234.383 Y175.989 E15.3059
G1 X237.422 Y179.028 E15.4152
G1 X237.422 Y179.919 E15.4378
G1 X234.383 Y176.880 E15.5471
G1 X234.383 Y177.771 E15.5698
G1 X237.422 Y180.810 E15.6791
G1 X237.422 Y181.700 E15.7017
G1 X234.383 Y178.661 E15.8110
G1 X234.383 Y179.552 E15.8337
G1 X237.422 Y182.591 E15.9430
G1 X237.422 Y183.482 E15.9656
G1 X234.383 Y180.443 E16.0749
G1 X234.383 Y181.334 E16.0976
G1 X237.422 Y184.373 E16.2069
G1 X237.422 Y185.264 E16.2295
G1 X234.383 Y182.225 E16.3388
G1 X234.383 Y183.116 E16.3615
G1 X237.422 Y186.155 E16.4708
G1 X237.422 Y187.046 E16.4934
G1 X234.383 Y184.007 E16.6027
G1 X234.383 Y184.898 E16.6254
G1 X237.422 Y187.937 E16.7347
G1 X237.422 Y188.828 E16.7573
G1 X234.383 Y185.789 E16.8666
G1 X234.383 Y186.680 E16.8893
G1 X237.422 Y189.719 E16.9986
G1 X237.422 Y190.610 E17.0212
G1 X234.383 Y187.571 E17.1305
G1 X234.383 Y188.462 E17.1532
G1 X237.422 Y191.501 E17.2625
