; G-Code generated by Simplify3D(R) Version 4.0.0
; Dec 10, 2018 at 8:34:47 PM
; Settings Summary
;   processName,Process1
;   applyToModels,Grid
;   profileName,ABSX200 (modified)
;   profileVersion,2018-05-09 09:22:02
;   baseProfile,Default(2)(2)(2)(2)(2) (modified)
;   printMaterial,
;   printQuality,
;   printExtruders,
;   extruderName,Primary Extruder
;   extruderToolheadNumber,0
;   extruderDiameter,0.5
;   extruderAutoWidth,1
;   extruderWidth,0.6
;   extrusionMultiplier,1.03
;   extruderUseRetract,1
;   extruderRetractionDistance,1.5
;   extruderExtraRestartDistance,0
;   extruderRetractionZLift,0
;   extruderRetractionSpeed,900
;   extruderUseCoasting,1
;   extruderCoastingDistance,0.3
;   extruderUseWipe,0
;   extruderWipeDistance,5
;   primaryExtruder,0
;   layerHeight,0.25
;   topSolidLayers,4
;   bottomSolidLayers,3
;   perimeterOutlines,2
;   printPerimetersInsideOut,1
;   startPointOption,2
;   startPointOriginX,0
;   startPointOriginY,0
;   sequentialIslands,0
;   spiralVaseMode,0
;   firstLayerHeightPercentage,100
;   firstLayerWidthPercentage,105
;   firstLayerUnderspeed,0.5
;   useRaft,0
;   raftExtruder,0
;   raftTopLayers,3
;   raftBaseLayers,0
;   raftOffset,3
;   raftSeparationDistance,0.14
;   raftTopInfill,100
;   aboveRaftSpeedMultiplier,0.3
;   useSkirt,1
;   skirtExtruder,0
;   skirtLayers,1
;   skirtOutlines,4
;   skirtOffset,0
;   usePrimePillar,0
;   primePillarExtruder,999
;   primePillarWidth,12
;   primePillarLocation,7
;   primePillarSpeedMultiplier,1
;   useOozeShield,0
;   oozeShieldExtruder,999
;   oozeShieldOffset,2
;   oozeShieldOutlines,1
;   oozeShieldSidewallShape,1
;   oozeShieldSidewallAngle,30
;   oozeShieldSpeedMultiplier,1
;   infillExtruder,0
;   internalInfillPattern,Rectilinear
;   externalInfillPattern,Rectilinear
;   infillPercentage,100
;   outlineOverlapPercentage,15
;   infillExtrusionWidthPercentage,200
;   minInfillLength,2
;   infillLayerInterval,1
;   internalInfillAngles,45,-45
;   overlapInternalInfillAngles,0
;   externalInfillAngles,45,-45
;   generateSupport,1
;   supportExtruder,0
;   supportInfillPercentage,20
;   supportExtraInflation,1
;   supportBaseLayers,0
;   denseSupportExtruder,0
;   denseSupportLayers,0
;   denseSupportInfillPercentage,70
;   supportLayerInterval,1
;   supportHorizontalPartOffset,0.5
;   supportUpperSeparationLayers,1
;   supportLowerSeparationLayers,1
;   supportType,0
;   supportGridSpacing,1
;   maxOverhangAngle,45
;   supportAngles,90
;   temperatureName,Primary Extruder,Heated Bed
;   temperatureNumber,0,1
;   temperatureSetpointCount,1,1
;   temperatureSetpointLayers,1,1
;   temperatureSetpointTemperatures,230,100
;   temperatureStabilizeAtStartup,1,1
;   temperatureHeatedBed,0,1
;   temperatureRelayBetweenLayers,0,0
;   temperatureRelayBetweenLoops,0,0
;   fanLayers,1,2
;   fanSpeeds,0,40
;   blipFanToFullPower,1
;   adjustSpeedForCooling,1
;   minSpeedLayerTime,20
;   minCoolingSpeedSlowdown,60
;   increaseFanForCooling,1
;   minFanLayerTime,45
;   maxCoolingFanSpeed,80
;   increaseFanForBridging,1
;   bridgingFanSpeed,100
;   use5D,1
;   relativeEdistances,0
;   allowEaxisZeroing,1
;   independentExtruderAxes,0
;   includeM10123,0
;   stickySupport,1
;   applyToolheadOffsets,0
;   gcodeXoffset,0
;   gcodeYoffset,0
;   gcodeZoffset,0
;   overrideMachineDefinition,1
;   machineTypeOverride,0
;   strokeXoverride,298
;   strokeYoverride,275
;   strokeZoverride,250
;   originOffsetXoverride,0
;   originOffsetYoverride,0
;   originOffsetZoverride,0
;   homeXdirOverride,-1
;   homeYdirOverride,-1
;   homeZdirOverride,-1
;   flipXoverride,1
;   flipYoverride,-1
;   flipZoverride,1
;   toolheadOffsets,0,0|0,0|0,0|0,0|0,0|0,0
;   overrideFirmwareConfiguration,1
;   firmwareTypeOverride,RepRap (Marlin/Repetier/Sprinter)
;   GPXconfigOverride,r2
;   baudRateOverride,115200
;   overridePrinterModels,1
;   printerModelsOverride,LulzBot_TAZ3.stl
;   startingGcode,G28 ; home all axes
;   layerChangeGcode,
;   retractionGcode,
;   toolChangeGcode,
;   endingGcode,M400,M104 S0                        ; hotend off,M140 S0                        ; heated bed heater off (if you have it),M107                           ; fans off,G91                            ; relative positioning,G1 E-1 F300                    ; retract the filament a bit before lifting the nozzle, to release some of the pressure,G1 Z1 F3000   ; move Z up a bit and retract filament even more,G90                            ; absolute positioning,G1 X0 Y250                     ; move to cooling position,M84                            ; steppers off,G90                            ; absolute positioning,M117 TAZ Ready.,;{profile_string}
;   exportFileFormat,gcode
;   celebration,0
;   celebrationSong,Random Song
;   postProcessing,
;   defaultSpeed,2400
;   outlineUnderspeed,0.5
;   solidInfillUnderspeed,0.8
;   supportUnderspeed,0.8
;   rapidXYspeed,4800
;   rapidZspeed,1002
;   minBridgingArea,50
;   bridgingExtraInflation,0
;   bridgingExtrusionMultiplier,1
;   bridgingSpeedMultiplier,1
;   useFixedBridgingAngle,0
;   fixedBridgingAngle,0
;   applyBridgingToPerimeters,0
;   filamentDiameters,2.85|2.9|2.9|2.9|2.9|2.9
;   filamentPricesPerKg,13|13|13|13|13|13
;   filamentDensities,1.05|1.05|1.05|1.05|1.05|1.05
;   useMinPrintHeight,0
;   minPrintHeight,10
;   useMaxPrintHeight,0
;   maxPrintHeight,10
;   useDiaphragm,0
;   diaphragmLayerInterval,20
;   robustSlicing,1
;   mergeAllIntoSolid,0
;   onlyRetractWhenCrossingOutline,1
;   retractBetweenLayers,1
;   useRetractionMinTravel,0
;   retractionMinTravel,3
;   retractWhileWiping,0
;   onlyWipeOutlines,1
;   avoidCrossingOutline,0
;   maxMovementDetourFactor,3
;   toolChangeRetractionDistance,12
;   toolChangeExtraRestartDistance,-0.5
;   toolChangeRetractionSpeed,600
;   externalThinWallType,0
;   internalThinWallType,2
;   thinWallAllowedOverlapPercentage,10
;   singleExtrusionMinLength,1
;   singleExtrusionMinPrintingWidthPercentage,50
;   singleExtrusionMaxPrintingWidthPercentage,200
;   singleExtrusionEndpointExtension,0.2
;   horizontalSizeCompensation,0
G90
M82
M106 S255
G4 P500
M106 S0
M140 S100
M190 S100
M104 S230 T0
M109 S230 T0
G28 ; home all axes
G92 E0
G1 E-1.5000 F900
G1 Z0.250 F1002
; process Process1
; layer 1, Z = 0.250
T0
; tool H0.250 W0.630
; skirt
G1 X72.947 Y61.971 F4800
G1 E0.0000 F270
G92 E0
G1 X74.177 Y60.741 E0.0442 F1200
G1 X235.917 Y60.741 E4.1572
G1 X237.147 Y61.971 E4.2014
G1 X237.147 Y223.711 E8.3144
G1 X235.917 Y224.941 E8.3586
G1 X74.177 Y224.941 E12.4716
G1 X72.947 Y223.711 E12.5158
G1 X72.947 Y62.271 E16.6212
G1 X72.947 Y61.971 F1200
G1 X73.547 Y62.220 F4800
G92 E0
G1 X74.425 Y61.341 E0.0316 F1200
G1 X235.668 Y61.341 E4.1319
G1 X236.547 Y62.220 E4.1635
G1 X236.547 Y223.463 E8.2638
G1 X235.668 Y224.341 E8.2954
G1 X74.425 Y224.341 E12.3958
G1 X73.547 Y223.463 E12.4274
G1 X73.547 Y62.520 E16.5201
G1 X73.547 Y62.220 F1200
G1 X74.147 Y62.468 F4800
G92 E0
G1 X74.674 Y61.941 E0.0190 F1200
G1 X235.420 Y61.941 E4.1066
G1 X235.947 Y62.468 E4.1256
G1 X235.947 Y223.214 E8.2133
G1 X235.420 Y223.741 E8.2322
G1 X74.674 Y223.741 E12.3199
G1 X74.147 Y223.214 E12.3389
G1 X74.147 Y62.768 E16.4189
G1 X74.147 Y62.468 F1200
G1 X74.747 Y62.717 F4800
G92 E0
G1 X74.922 Y62.541 E0.0063 F1200
G1 X235.171 Y62.541 E4.0814
G1 X235.347 Y62.717 E4.0877
G1 X235.347 Y222.965 E8.1627
G1 X235.171 Y223.141 E8.1690
G1 X74.922 Y223.141 E12.2441
G1 X74.747 Y222.965 E12.2504
G1 X74.747 Y63.017 E16.3178
G1 X74.747 Y62.717 F1200
G92 E0
G1 E-1.5000 F900
; outer perimeter
G1 X75.362 Y63.156 F4800
G1 E0.0000 F900
G92 E0
G1 X234.732 Y63.156 E4.0527 F600
G1 X234.732 Y222.526 E8.1054
G1 X75.362 Y222.526 E12.1581
G1 X75.362 Y63.456 E16.2032
G1 X75.362 Y63.156 F600
G1 X75.732 Y63.526 F4800
G92 E0
G1 X75.732 Y71.156 E0.1940 F600
G1 X84.862 Y71.156 E0.4262
G1 X84.862 Y63.526 E0.6202
G1 X76.032 Y63.526 E0.8448
G1 X75.732 Y63.526 F600
G1 X75.732 Y71.526 F4800
G92 E0
G1 X75.732 Y81.156 E0.2449 F600
G1 X84.862 Y81.156 E0.4771
G1 X84.862 Y71.526 E0.7219
G1 X76.032 Y71.526 E0.9465
G1 X75.732 Y71.526 F600
G1 X85.232 Y71.526 F4800
G92 E0
G1 X85.232 Y81.156 E0.2449 F600
G1 X94.862 Y81.156 E0.4898
G1 X94.862 Y71.526 E0.7347
G1 X85.532 Y71.526 E0.9719
G1 X85.232 Y71.526 F600
G1 X85.232 Y71.156 F4800
G92 E0
G1 X94.862 Y71.156 E0.2449 F600
G1 X94.862 Y63.526 E0.4389
G1 X85.232 Y63.526 E0.6838
G1 X85.232 Y70.856 E0.8702
G1 X85.232 Y71.156 F600
G1 X95.232 Y71.156 F4800
G92 E0
G1 X104.862 Y71.156 E0.2449 F600
G1 X104.862 Y63.526 E0.4389
G1 X95.232 Y63.526 E0.6838
G1 X95.232 Y70.856 E0.8702
G1 X95.232 Y71.156 F600
G1 X95.232 Y71.526 F4800
G92 E0
G1 X95.232 Y81.156 E0.2449 F600
G1 X104.862 Y81.156 E0.4898
G1 X104.862 Y71.526 E0.7347
G1 X95.532 Y71.526 E0.9719
G1 X95.232 Y71.526 F600
G1 X105.232 Y71.526 F4800
G92 E0
G1 X105.232 Y81.156 E0.2449 F600
G1 X114.862 Y81.156 E0.4898
G1 X114.862 Y71.526 E0.7347
G1 X105.532 Y71.526 E0.9719
G1 X105.232 Y71.526 F600
G1 X105.232 Y71.156 F4800
G92 E0
G1 X114.862 Y71.156 E0.2449 F600
G1 X114.862 Y63.526 E0.4389
G1 X105.232 Y63.526 E0.6838
G1 X105.232 Y70.856 E0.8702
G1 X105.232 Y71.156 F600
G1 X115.232 Y71.156 F4800
G92 E0
G1 X124.862 Y71.156 E0.2449 F600
G1 X124.862 Y63.526 E0.4389
G1 X115.232 Y63.526 E0.6838
G1 X115.232 Y70.856 E0.8702
G1 X115.232 Y71.156 F600
G1 X115.232 Y71.526 F4800
G92 E0
G1 X115.232 Y81.156 E0.2449 F600
G1 X124.862 Y81.156 E0.4898
G1 X124.862 Y71.526 E0.7347
G1 X115.532 Y71.526 E0.9719
G1 X115.232 Y71.526 F600
G1 X125.232 Y71.526 F4800
G92 E0
G1 X125.232 Y81.156 E0.2449 F600
G1 X134.862 Y81.156 E0.4898
G1 X134.862 Y71.526 E0.7347
G1 X125.532 Y71.526 E0.9719
G1 X125.232 Y71.526 F600
G1 X125.232 Y71.156 F4800
G92 E0
G1 X134.862 Y71.156 E0.2449 F600
G1 X134.862 Y63.526 E0.4389
G1 X125.232 Y63.526 E0.6838
G1 X125.232 Y70.856 E0.8702
G1 X125.232 Y71.156 F600
G1 X135.232 Y71.156 F4800
G92 E0
G1 X144.862 Y71.156 E0.2449 F600
G1 X144.862 Y63.526 E0.4389
G1 X135.232 Y63.526 E0.6838
G1 X135.232 Y70.856 E0.8702
G1 X135.232 Y71.156 F600
G1 X135.232 Y71.526 F4800
G92 E0
G1 X135.232 Y81.156 E0.2449 F600
G1 X144.862 Y81.156 E0.4898
G1 X144.862 Y71.526 E0.7347
G1 X135.532 Y71.526 E0.9719
G1 X135.232 Y71.526 F600
G1 X145.232 Y71.526 F4800
G92 E0
G1 X145.232 Y81.156 E0.2449 F600
G1 X154.862 Y81.156 E0.4898
G1 X154.862 Y71.526 E0.7347
G1 X145.532 Y71.526 E0.9719
G1 X145.232 Y71.526 F600
G1 X145.232 Y71.156 F4800
G92 E0
G1 X154.862 Y71.156 E0.2449 F600
G1 X154.862 Y63.526 E0.4389
G1 X145.232 Y63.526 E0.6838
G1 X145.232 Y70.856 E0.8702
G1 X145.232 Y71.156 F600
G1 X155.232 Y71.156 F4800
G92 E0
G1 X164.862 Y71.156 E0.2449 F600
G1 X164.862 Y63.526 E0.4389
G1 X155.232 Y63.526 E0.6838
G1 X155.232 Y70.856 E0.8702
G1 X155.232 Y71.156 F600
G1 X155.232 Y71.526 F4800
G92 E0
G1 X155.232 Y81.156 E0.2449 F600
G1 X164.862 Y81.156 E0.4898
G1 X164.862 Y71.526 E0.7347
G1 X155.532 Y71.526 E0.9719
G1 X155.232 Y71.526 F600
G1 X165.232 Y71.526 F4800
G92 E0
G1 X165.232 Y81.156 E0.2449 F600
G1 X174.862 Y81.156 E0.4898
G1 X174.862 Y71.526 E0.7347
G1 X165.532 Y71.526 E0.9719
G1 X165.232 Y71.526 F600
G1 X165.232 Y71.156 F4800
G92 E0
G1 X174.862 Y71.156 E0.2449 F600
G1 X174.862 Y63.526 E0.4389
G1 X165.232 Y63.526 E0.6838
G1 X165.232 Y70.856 E0.8702
G1 X165.232 Y71.156 F600
G1 X175.232 Y71.156 F4800
G92 E0
G1 X184.862 Y71.156 E0.2449 F600
G1 X184.862 Y63.526 E0.4389
G1 X175.232 Y63.526 E0.6838
G1 X175.232 Y70.856 E0.8702
G1 X175.232 Y71.156 F600
G1 X175.232 Y71.526 F4800
G92 E0
G1 X175.232 Y81.156 E0.2449 F600
G1 X184.862 Y81.156 E0.4898
G1 X184.862 Y71.526 E0.7347
G1 X175.532 Y71.526 E0.9719
G1 X175.232 Y71.526 F600
G1 X185.232 Y71.526 F4800
G92 E0
G1 X185.232 Y81.156 E0.2449 F600
G1 X194.862 Y81.156 E0.4898
G1 X194.862 Y71.526 E0.7347
G1 X185.532 Y71.526 E0.9719
G1 X185.232 Y71.526 F600
G1 X185.232 Y71.156 F4800
G92 E0
G1 X194.862 Y71.156 E0.2449 F600
G1 X194.862 Y63.526 E0.4389
G1 X185.232 Y63.526 E0.6838
G1 X185.232 Y70.856 E0.8702
G1 X185.232 Y71.156 F600
G1 X195.232 Y71.156 F4800
G92 E0
G1 X204.862 Y71.156 E0.2449 F600
G1 X204.862 Y63.526 E0.4389
G1 X195.232 Y63.526 E0.6838
G1 X195.232 Y70.856 E0.8702
G1 X195.232 Y71.156 F600
G1 X195.232 Y71.526 F4800
G92 E0
G1 X195.232 Y81.156 E0.2449 F600
G1 X204.862 Y81.156 E0.4898
G1 X204.862 Y71.526 E0.7347
G1 X195.532 Y71.526 E0.9719
G1 X195.232 Y71.526 F600
G1 X205.232 Y71.526 F4800
G92 E0
G1 X205.232 Y81.156 E0.2449 F600
G1 X214.862 Y81.156 E0.4898
G1 X214.862 Y71.526 E0.7347
G1 X205.532 Y71.526 E0.9719
G1 X205.232 Y71.526 F600
G1 X205.232 Y71.156 F4800
G92 E0
G1 X214.862 Y71.156 E0.2449 F600
G1 X214.862 Y63.526 E0.4389
G1 X205.232 Y63.526 E0.6838
G1 X205.232 Y70.856 E0.8702
G1 X205.232 Y71.156 F600
G1 X215.232 Y71.156 F4800
G92 E0
G1 X224.862 Y71.156 E0.2449 F600
G1 X224.862 Y63.526 E0.4389
G1 X215.232 Y63.526 E0.6838
G1 X215.232 Y70.856 E0.8702
G1 X215.232 Y71.156 F600
G1 X215.232 Y71.526 F4800
G92 E0
G1 X215.232 Y81.156 E0.2449 F600
G1 X224.862 Y81.156 E0.4898
G1 X224.862 Y71.526 E0.7347
G1 X215.532 Y71.526 E0.9719
G1 X215.232 Y71.526 F600
G1 X225.232 Y71.526 F4800
G92 E0
G1 X225.232 Y81.156 E0.2449 F600
G1 X234.362 Y81.156 E0.4771
G1 X234.362 Y71.526 E0.7219
G1 X225.532 Y71.526 E0.9465
G1 X225.232 Y71.526 F600
G1 X225.232 Y71.156 F4800
G92 E0
G1 X234.362 Y71.156 E0.2322 F600
G1 X234.362 Y63.526 E0.4262
G1 X225.232 Y63.526 E0.6584
G1 X225.232 Y70.856 E0.8448
G1 X225.232 Y71.156 F600
G1 X225.232 Y81.526 F4800
G92 E0
G1 X225.232 Y91.156 E0.2449 F600
G1 X234.362 Y91.156 E0.4771
G1 X234.362 Y81.526 E0.7219
G1 X225.532 Y81.526 E0.9465
G1 X225.232 Y81.526 F600
G1 X224.862 Y81.526 F4800
G92 E0
G1 X215.232 Y81.526 E0.2449 F600
G1 X215.232 Y91.156 E0.4898
G1 X224.862 Y91.156 E0.7347
G1 X224.862 Y81.826 E0.9719
G1 X224.862 Y81.526 F600
G1 X224.862 Y91.526 F4800
G92 E0
G1 X215.232 Y91.526 E0.2449 F600
G1 X215.232 Y101.156 E0.4898
G1 X224.862 Y101.156 E0.7347
G1 X224.862 Y91.826 E0.9719
G1 X224.862 Y91.526 F600
G1 X225.232 Y91.526 F4800
G92 E0
G1 X225.232 Y101.156 E0.2449 F600
G1 X234.362 Y101.156 E0.4771
G1 X234.362 Y91.526 E0.7219
G1 X225.532 Y91.526 E0.9465
G1 X225.232 Y91.526 F600
G1 X225.232 Y101.526 F4800
G92 E0
G1 X225.232 Y111.156 E0.2449 F600
G1 X234.362 Y111.156 E0.4771
G1 X234.362 Y101.526 E0.7219
G1 X225.532 Y101.526 E0.9465
G1 X225.232 Y101.526 F600
G1 X224.862 Y101.526 F4800
G92 E0
G1 X215.232 Y101.526 E0.2449 F600
G1 X215.232 Y111.156 E0.4898
G1 X224.862 Y111.156 E0.7347
G1 X224.862 Y101.826 E0.9719
G1 X224.862 Y101.526 F600
G1 X224.862 Y111.526 F4800
G92 E0
G1 X215.232 Y111.526 E0.2449 F600
G1 X215.232 Y121.156 E0.4898
G1 X224.862 Y121.156 E0.7347
G1 X224.862 Y111.826 E0.9719
G1 X224.862 Y111.526 F600
G1 X225.232 Y111.526 F4800
G92 E0
G1 X225.232 Y121.156 E0.2449 F600
G1 X234.362 Y121.156 E0.4771
G1 X234.362 Y111.526 E0.7219
G1 X225.532 Y111.526 E0.9465
G1 X225.232 Y111.526 F600
G1 X225.232 Y121.526 F4800
G92 E0
G1 X225.232 Y131.156 E0.2449 F600
G1 X234.362 Y131.156 E0.4771
G1 X234.362 Y121.526 E0.7219
G1 X225.532 Y121.526 E0.9465
G1 X225.232 Y121.526 F600
G1 X224.862 Y121.526 F4800
G92 E0
G1 X215.232 Y121.526 E0.2449 F600
G1 X215.232 Y131.156 E0.4898
G1 X224.862 Y131.156 E0.7347
G1 X224.862 Y121.826 E0.9719
G1 X224.862 Y121.526 F600
G1 X224.862 Y131.526 F4800
G92 E0
G1 X215.232 Y131.526 E0.2449 F600
G1 X215.232 Y141.156 E0.4898
G1 X224.862 Y141.156 E0.7347
G1 X224.862 Y131.826 E0.9719
G1 X224.862 Y131.526 F600
G1 X225.232 Y131.526 F4800
G92 E0
G1 X225.232 Y141.156 E0.2449 F600
G1 X234.362 Y141.156 E0.4771
G1 X234.362 Y131.526 E0.7219
G1 X225.532 Y131.526 E0.9465
G1 X225.232 Y131.526 F600
G1 X225.232 Y141.526 F4800
G92 E0
G1 X225.232 Y151.156 E0.2449 F600
G1 X234.362 Y151.156 E0.4771
G1 X234.362 Y141.526 E0.7219
G1 X225.532 Y141.526 E0.9465
G1 X225.232 Y141.526 F600
G1 X224.862 Y141.526 F4800
G92 E0
G1 X215.232 Y141.526 E0.2449 F600
G1 X215.232 Y151.156 E0.4898
G1 X224.862 Y151.156 E0.7347
G1 X224.862 Y141.826 E0.9719
G1 X224.862 Y141.526 F600
G1 X214.862 Y141.526 F4800
G92 E0
G1 X205.232 Y141.526 E0.2449 F600
G1 X205.232 Y151.156 E0.4898
G1 X214.862 Y151.156 E0.7347
G1 X214.862 Y141.826 E0.9719
G1 X214.862 Y141.526 F600
G1 X214.862 Y141.156 F4800
G92 E0
